!!!!SEGMENT: pl-sa--1-a-i-1--001_dittersdorf-carl-ditters-von--symphonia-ex-c-allegro-assai.krn
!!!id: 17xx:574
!!!COM: Dittersdorf, Carl Ditters von
!!!COM-rism: pe14522
!!!CDT: 1739/11/02-1799/10/24
!!!CNT: Austrian
!!!OTL: Symphonia ex C – Allegro assai
!!!PDT:
!!!SMS-siglum: PL-SA
!!!SMS-shelfmark: 1/A I 1
!!!NIFC-rismID: 1001034975
!!!URL-scan: http://bc.bdsandomierz.pl/dlibra/publication/1268/edition/1236/content
!!!ONB-nifc: UWAGA: części Symphonii: Allegro assai, Andante, Menuetto, Presto
!!!SMS-variant:
!!!SMS-altvar:
**kern	**dynam	**kern	**dynam	**kern	**dynam	**kern	**dynam	**kern	**kern	**kern	**kern
*part8	*part8	*part7	*part7	*part6	*part6	*part5	*part5	*part4	*part3	*part2	*part1
*staff8	*	*staff7	*	*staff6	*	*staff5	*	*staff4	*staff3	*staff2	*staff1
*I"Baſso	*	*I"Viola	*	*I"Violino 2do	*	*I"Violino 1mo	*	*I"Corno 2do	*I"Cornu 1mo	*I"Oboe 2do	*I"Oboe 1mo
*I'bc	*	*I'vla	*	*I'vl II	*	*I'vl I	*	*I'cor II	*I'cor I	*I'ob II	*I'ob I
*clefF4	*	*clefC3	*	*clefG2	*	*clefG2	*	*clefG2	*clefG2	*clefG2	*clefG2
*	*	*	*	*	*	*	*	*Trd0c0	*Trd0c0	*	*
*k[]	*	*k[]	*	*k[]	*	*k[]	*	*k[]	*k[]	*k[]	*k[]
*M2/2	*	*M2/2	*	*M2/2	*	*M2/2	*	*M2/2	*M2/2	*M2/2	*M2/2
*met(c|)	*	*met(c|)	*	*met(c|)	*	*met(c|)	*	*met(c|)	*met(c|)	*met(c|)	*met(c|)
=1	=1	=1	=1	=1	=1	=1	=1	=1	=1	=1	=1
!LO:TX:a:B:t=allo&colon; assai	!	!LO:TX:a:B:t=allo&colon; assai	!	!LO:TX:a:B:t=allo assai	!	!LO:TX:a:B:t=allo&colon; assai	!	!LO:TX:a:B:t=allo. assai	!LO:TX:a:B:t=allo assai	!LO:TX:a:B:t=allo&colon; assai	!LO:TX:a:B:t=allo assai
8C/L	.	8c/L	.	1c/	.	1c/	.	1c/	1cc\	4cc\	4cc\
8C/	.	8c/	.	.	.	.	.	.	.	.	.
8C/	.	8c/	.	.	.	.	.	.	.	4r	4r
8C/J	.	8c/J	.	.	.	.	.	.	.	.	.
*	*	*tremolo	*	*	*	*	*	*	*	*	*
8C/L	.	8c/L	.	.	.	.	.	.	.	2r	2r
8C/	.	8c/	.	.	.	.	.	.	.	.	.
8C/	.	8c/	.	.	.	.	.	.	.	.	.
8C/J	.	8c/J	.	.	.	.	.	.	.	.	.
=2	=2	=2	=2	=2	=2	=2	=2	=2	=2	=2	=2
*tremolo	*	*	*	*	*	*	*	*	*	*	*
!	!	!	!	!	!	!	!	!	!LO:SIC:o:s=:v:2ee	!	!
8C/L	.	8c/L	.	2e/	.	2e/	.	2e/	4cc\ 4ee\	2e/	2e/
8C/	.	8c/	.	.	.	.	.	.	.	.	.
8C/	.	8c/	.	.	.	.	.	.	4cc\ 4ee\	.	.
8C/J	.	8c/J	.	.	.	.	.	.	.	.	.
*	*	*	*	*	*	*	*	*	*2\right	*	*
8C/L	.	8c/L	.	2g/	.	2g/	.	2g/	2gg\	2g/	2g/
8C/	.	8c/	.	.	.	.	.	.	.	.	.
8C/	.	8c/	.	.	.	.	.	.	.	.	.
8C/J	.	8c/J	.	.	.	.	.	.	.	.	.
=3	=3	=3	=3	=3	=3	=3	=3	=3	=3	=3	=3
8C/L	.	8c/L	.	16cc\LL	.	16cc\LL	.	4cc\	4cc\	1cc\	1cc\
.	.	.	.	16dd\	.	16dd\	.	.	.	.	.
8C/	.	8c/	.	16ee\	.	16ee\	.	.	.	.	.
.	.	.	.	16dd\JJ	.	16dd\JJ	.	.	.	.	.
8C/	.	8c/	.	8cc\L	.	8cc\L	.	8.c/L	8.cc\L	.	.
8C/J	.	8c/J	.	8cc\J	.	8cc\J	.	.	.	.	.
.	.	.	.	.	.	.	.	16c/Jk	16cc\Jk	.	.
8C/L	.	8c/L	.	8cc\L	.	8cc\L	.	4c/	4cc\	.	.
8C/	.	8c/	.	8cc\	.	8cc\	.	.	.	.	.
8C/	.	8c/	.	8cc\	.	8cc\	.	4c/	4cc\	.	.
8C/J	.	8c/J	.	8cc\J	.	8cc\J	.	.	.	.	.
=4	=4	=4	=4	=4	=4	=4	=4	=4	=4	=4	=4
*	*	*	*	*	*	*^	*	*	*	*	*
8C/L	.	8c/L	.	4g/ 4cc/ 4ff/	.	4aa/	4cc\	.	4c/	4cc\	4ff\	4aa\
8C/	.	8c/	.	.	.	.	.	.	.	.	.	.
8C/	.	8c/	.	4g/ 4cc/ 4ee/	.	4gg/	4cc\	.	8.c/L	8.cc\L	4ee\	4gg\
8C/J	.	8c/J	.	.	.	.	.	.	.	.	.	.
.	.	.	.	.	.	.	.	.	16c/Jk	16cc\Jk	.	.
8C/L	.	8c/L	.	2r	.	2r	2ryy	.	4c/	4cc\	2r	2r
8C/	.	8c/	.	.	.	.	.	.	.	.	.	.
8C/	.	8c/	.	.	.	.	.	.	4c/	4cc\	.	.
8C/J	.	8c/J	.	.	.	.	.	.	.	.	.	.
*	*	*	*	*	*	*v	*v	*	*	*	*	*
!LO:LB:g=original	!	!	!	!	!	!	!	!	!	!	!
=5	=5	=5	=5	=5	=5	=5	=5	=5	=5	=5	=5
8C/L	.	8c/L	.	1c/	.	1c/	.	1c/	1cc\	4cc\	4cc\
8C/	.	8c/	.	.	.	.	.	.	.	.	.
8C/	.	8c/	.	.	.	.	.	.	.	4r	4r
8C/J	.	8c/J	.	.	.	.	.	.	.	.	.
!	!	!LO:SIC:o:s=:v:znak końca repetycji	!	!	!	!	!	!	!	!	!
8C/L	.	8c/L	.	.	.	.	.	.	.	2r	2r
8C/	.	8c/	.	.	.	.	.	.	.	.	.
8C/	.	8c/	.	.	.	.	.	.	.	.	.
8C/J	.	8c/J	.	.	.	.	.	.	.	.	.
=6	=6	=6	=6	=6	=6	=6	=6	=6	=6	=6	=6
!	!	!LO:SIC:o:s=:v:powtórzenie tt. 1-5 oznaczone znakiem końca repetycji	!	!	!	!	!	!	!	!	!
8C/L	.	8c/Lyy	.	2e/	.	2e/	.	2e/	2ee\	2e/	2e/
8C/	.	8c/yy	.	.	.	.	.	.	.	.	.
8C/	.	8c/yy	.	.	.	.	.	.	.	.	.
8C/J	.	8c/Jyy	.	.	.	.	.	.	.	.	.
8C/L	.	8c/Lyy	.	2g/	.	2g/	.	2g/	2gg\	2g/	2g/
8C/	.	8c/yy	.	.	.	.	.	.	.	.	.
8C/	.	8c/yy	.	.	.	.	.	.	.	.	.
8C/J	.	8c/Jyy	.	.	.	.	.	.	.	.	.
=7	=7	=7	=7	=7	=7	=7	=7	=7	=7	=7	=7
!	!	!	!	!	!	!	!	!	!	!LO:SIC:o:s=:v:niejednoznaczny zapis [pauza/1cc]; przyjęto zgodnie z ob I	!
8C/L	.	8c/Lyy	.	16cc\LL	.	16cc\LL	.	4c/	4cc\	1cc\	1cc\
.	.	.	.	16dd\	.	16dd\	.	.	.	.	.
8C/	.	8c/yy	.	16ee\	.	16ee\	.	.	.	.	.
.	.	.	.	16dd\JJ	.	16dd\JJ	.	.	.	.	.
8C/	.	8c/yy	.	8cc\L	.	8cc\L	.	8.c/L	8.cc\L	.	.
8C/J	.	8c/Jyy	.	8cc\J	.	8cc\J	.	.	.	.	.
.	.	.	.	.	.	.	.	16c/Jk	16cc\Jk	.	.
8C/L	.	8c/Lyy	.	8cc\L	.	8cc\L	.	4c/	4cc\	.	.
8C/	.	8c/yy	.	8cc\	.	8cc\	.	.	.	.	.
8C/	.	8c/yy	.	8cc\	.	8cc\	.	4c/	4cc\	.	.
8C/J	.	8c/Jyy	.	8cc\J	.	8cc\J	.	.	.	.	.
!	!	!	!	!LO:LB:g=original	!	!LO:LB:g=original	!	!	!	!	!
=8	=8	=8	=8	=8	=8	=8	=8	=8	=8	=8	=8
*	*	*	*	*	*	*^	*	*	*	*	*
8C/L	.	8c/Lyy	.	4G/ 4d/ 4b/	.	4ff/	4dd\	.	4g/	4dd\	4dd\	4ff\
8C/	.	8c/yy	.	.	.	.	.	.	.	.	.	.
8C/	.	8c/yy	.	4G/ 4e/ 4cc/	.	4ee/	4cc\	.	8.cc\L	8.ee\L	4cc\	4ee\
8C/J	.	8c/Jyy	.	.	.	.	.	.	.	.	.	.
.	.	.	.	.	.	.	.	.	16cc\Jk	16ee\Jk	.	.
8C/L	.	8c/Lyy	.	2r	.	2r	2ryy	.	4cc\	4ee\	2r	2r
8c/yy	.	8c/yy	.	.	.	.	.	.	.	.	.	.
8C/	.	8c/yy	.	.	.	.	.	.	4cc\	4ee\	.	.
8C/J	.	8c/Jyy	.	.	.	.	.	.	.	.	.	.
*	*	*	*	*	*	*v	*v	*	*	*	*	*
!	!	!	!	!	!	!	!	!LO:LB:g=original	!	!	!
=9	=9	=9	=9	=9	=9	=9	=9	=9	=9	=9	=9
8C/L	.	8c/Lyy	.	2c/	.	2c/	.	4cc\	4ee\	1r	1r
8C/	.	8c/yy	.	.	.	.	.	.	.	.	.
8C/	.	8c/yy	.	.	.	.	.	4r	4r	.	.
8C/J	.	8c/Jyy	.	.	.	.	.	.	.	.	.
8C/L	.	8c/Lyy	.	4e/	.	4e/	.	2r	2r	.	.
8C/	.	8c/yy	.	.	.	.	.	.	.	.	.
8C/	.	8c/yy	.	4g/	.	4g/	.	.	.	.	.
8C/J	.	8c/Jyy	.	.	.	.	.	.	.	.	.
!	!	!	!	!	!	!	!	!	!LO:LB:g=original	!	!
=10	=10	=10	=10	=10	=10	=10	=10	=10	=10	=10	=10
*	*	*	*	*	*	*2\right	*	*	*	*2\right	*2\right
8C/L	.	8c/Lyy	.	2c/	.	2cc\	.	2c/	2cc\	2cc\	2cc\
8C/	.	8c/yy	.	.	.	.	.	.	.	.	.
8C/	.	8c/yy	.	.	.	.	.	.	.	.	.
8C/J	.	8c/Jyyyy	.	.	.	.	.	.	.	.	.
8C/L	.	8c/Lyy	.	4e/	.	4ee\	.	4e/	4ee\	4ee\	4ee\
8C/	.	8c/yy	.	.	.	.	.	.	.	.	.
8C/	.	8c/yy	.	4g/	.	4gg\	.	4g/	4gg\	4gg\	4gg\
8C/J	.	8c/Jyy	.	.	.	.	.	.	.	.	.
!LO:LB:g=original	!	!	!	!	!	!	!	!	!	!	!LO:LB:g=original
=11	=11	=11	=11	=11	=11	=11	=11	=11	=11	=11	=11
*Xtremolo	*	*Xtremolo	*	*	*	*	*	*	*	*	*
!	!	!	!	!	!	!	!	!	!	!LO:SIC:o=:v:znak początku repetycji	!
8E/L	.	8e\L	.	8cc\L	.	8ccc\L	.	4cc\	4cc\	1cc\	1ccc\
8E/	.	8e\	.	8b\	.	8bb\	.	.	.	.	.
8C/	.	8c\	.	8cc\	.	8ccc\	.	8.c/L	8cc\L	.	.
8C/J	.	8c\J	.	8b\J	.	8bb\J	.	.	8cc\J	.	.
.	.	.	.	.	.	.	.	16c/Jk	.	.	.
!	!	!	!	!LO:SIC:o:s=:v:niejednoznaczny zapis łuku	!	!	!	!	!	!	!
8E/L	.	8e\L	.	(8cc\L	.	8ccc\L	.	4c/	4cc\	.	.
8E/	.	8e\	.	8b-X\	.	8bb-X\	.	.	.	.	.
8C/	.	8c\	.	8a\	.	8aa\	.	4c/	4cc\	.	.
8C/J	.	8c\J	.	8g#X\J)	.	8gg#X\J	.	.	.	.	.
!	!	!	!	!	!	!	!	!	!	!LO:LB:g=original	!
=12	=12	=12	=12	=12	=12	=12	=12	=12	=12	=12	=12
8F\L	.	8f\L	.	4a/	.	4aa\	.	4c/	4cc\	1cc\	1ccc\
8F\	.	8f\	.	.	.	.	.	.	.	.	.
8C\	.	8c\	.	2a/	.	2aa\	.	8.c/L	8cc\L	.	.
8C\J	.	8c\J	.	.	.	.	.	.	8cc\J	.	.
.	.	.	.	.	.	.	.	16c/Jk	.	.	.
!	!	!LO:LB:g=original	!	!	!	!	!	!	!	!	!
8F\L	.	8f\L	.	.	.	.	.	4c/	4cc\	.	.
8F\	.	8f\	.	.	.	.	.	.	.	.	.
8C\	.	8c\	.	8.bn/L	.	8.bbn\L	.	4c/	4cc\	.	.
8C\J	.	8c\J	.	.	.	.	.	.	.	.	.
.	.	.	.	32a/LL	.	32aa\LL	.	.	.	.	.
.	.	.	.	32b/JJJ	.	32bb\JJJ	.	.	.	.	.
=13	=13	=13	=13	=13	=13	=13	=13	=13	=13	=13	=13
!	!	!	!	!	!	!	!	!LO:N:vis=2	!	!	!
8F\L	.	8f\L	.	8cc\L	.	8ccc\L	.	1c/	1cc\	1cc\	1ccc\
8F\	.	8f\	.	8b\	.	8bb\	.	.	.	.	.
8C\	.	8c\	.	8cc\	.	8ccc\	.	.	.	.	.
8C\J	.	8c\J	.	8b\J	.	8bb\J	.	.	.	.	.
8F\L	.	8f\L	.	8cc/L	.	8ccc\L	.	.	.	.	.
8F\	.	8f\	.	8a/	.	8aa\	.	.	.	.	.
8C\	.	8c\	.	8g/	.	8gg\	.	.	.	.	.
8C\J	.	8c\J	.	8f#X/J	.	8ff#X\J	.	.	.	.	.
!	!	!	!	!	!	!LO:LB:g=original	!	!	!	!	!
=14	=14	=14	=14	=14	=14	=14	=14	=14	=14	=14	=14
!	!	!LO:SIC:o:s=:v:p = pi&colon;global	!	!LO:SIC:o:s=:v:8qf#	!	!LO:SIC:o:s=:v:8qff#	!	!LO:N:vis=2	!	!LO:SIC:o:s=:v:znak końca repetycji	!
.	.	.	.	8qqf/	.	8qqff/	.	.	.	.	.
!	!	!	!	!	!	!	!	!LO:N:vis=2	!	!	!
8E\L	.	8e\L	p	4g/	.	4gg\	.	1c/	1cc\	1cc\	1ccc\
8E\	.	8e\	.	.	.	.	.	.	.	.	.
8C\	.	8c\	.	2g/	.	2gg\	.	.	.	.	.
8C\J	.	8c\J	.	.	.	.	.	.	.	.	.
8E\L	.	8e\L	.	.	.	.	.	.	.	.	.
8E\	.	8e\	.	.	.	.	.	.	.	.	.
!	!	!	!	!LO:LB:g=original	!	!	!	!	!	!	!
!	!	!	!	!LO:SIC:o:s=:v:f = fr lub for&colon;global	!	!	!	!	!	!	!
8C\	.	8c\	.	8.b\L	f	8.bb\L	.	.	.	.	.
8C\J	.	8c\J	.	.	.	.	.	.	.	.	.
.	.	.	.	32a\LL	.	32aa\LL	.	.	.	.	.
.	.	.	.	32b\JJJ	.	32bb\JJJ	.	.	.	.	.
=15	=15	=15	=15	=15	=15	=15	=15	=15	=15	=15	=15
!	!	!	!	!LO:SIC:o:s=:v:niejednoznaczny zapis łuków w t. 15	!	!	!	!	!	!	!
!	!	!LO:SIC:o:s=:v:brak t. 15	!	!LO:SIC:o:s=:v:p = pi&colon;global	!	!	!	!LO:N:vis=2	!	!LO:SIC:o:s=:v:powtórzenie tt. 11-14 oznaczone znakami repetycji	!
8E\L	.	1ryy	.	(8cc\L	p	8ccc\L	.	1c/	1cc\	1ccyy\	1ccc\
8E\	.	.	.	8b\	.	8bb\	.	.	.	.	.
8C\	.	.	.	8cc\	.	8ccc\	.	.	.	.	.
8C\J	.	.	.	8b\J)	.	8bb\J	.	.	.	.	.
8E\L	.	.	.	(8cc/L	.	8ccc\L	.	.	.	.	.
8E\	.	.	.	8b-X/	.	8bb-X\	.	.	.	.	.
8C\	.	.	.	8a/	.	8aa\	.	.	.	.	.
8C\J	.	.	.	8g#X/J)	.	8gg#X\J	.	.	.	.	.
!LO:LB:g=original	!	!	!	!	!	!	!	!	!	!	!
=16	=16	=16	=16	=16	=16	=16	=16	=16	=16	=16	=16
8F\L	.	8f\L	.	4a/	.	4aa\	.	1c/	1cc\	1ccyy\	1ccc\
8F\	.	8f\	.	.	.	.	.	.	.	.	.
8C\	.	8c\	.	2a/	.	2aa\	.	.	.	.	.
8C\J	.	8c\J	.	.	.	.	.	.	.	.	.
8F\L	.	8f\L	.	.	.	.	.	.	.	.	.
8F\	.	8f\	.	.	.	.	.	.	.	.	.
8C\	.	8c\	.	8.bn/L	.	8.bbn\L	.	.	.	.	.
8C\J	.	8c\J	.	.	.	.	.	.	.	.	.
.	.	.	.	32a/LL	.	32aa\LL	.	.	.	.	.
.	.	.	.	32b/JJJ	.	32bb\JJJ	.	.	.	.	.
=17	=17	=17	=17	=17	=17	=17	=17	=17	=17	=17	=17
!	!	!	!	!LO:SIC:o:s=:v:niejednoznaczny zapis łuków w t. 17	!	!	!	!	!	!	!
8F\L	.	8f\L	.	(8cc\L	.	8ccc\L	.	1c/	1cc\	1ccyy\	1ccc\
8F\	.	8f\	.	8b\	.	8bb\	.	.	.	.	.
8C\	.	8c\	.	8cc\	.	8ccc\	.	.	.	.	.
8C\J	.	8c\J	.	8b\J)	.	8bb\J	.	.	.	.	.
8F\L	.	8f\L	.	(8cc/L	.	8ccc\L	.	.	.	.	.
8F\	.	8f\	.	8a/	.	8aa\	.	.	.	.	.
8C\	.	8c\	.	8g/	.	8gg\	.	.	.	.	.
8C\J	.	8c\J	.	8f#X/J)	.	8ff#X\J	.	.	.	.	.
=18	=18	=18	=18	=18	=18	=18	=18	=18	=18	=18	=18
!	!	!	!	!	!	!LO:SIC:o:s=:v:8qff#	!	!	!	!	!
.	.	.	.	.	.	8qqff/	.	.	.	.	.
8E\L	.	8e\L	.	4g/	.	4gg\	.	1c/	1cc\	1ccyy\	1ccc\
8E\	.	8e\	.	.	.	.	.	.	.	.	.
8C\	.	8c\	.	2g/	.	2gg\	.	.	.	.	.
8C\J	.	8c\J	.	.	.	.	.	.	.	.	.
8E\L	.	8e\L	.	.	.	.	.	.	.	.	.
8E\	.	8e\	.	.	.	.	.	.	.	.	.
8C\	.	8c\	.	8ee\L	.	8ccc\L	.	.	.	.	.
8C\J	.	8c\J	.	8cc\J	.	8gg\J	.	.	.	.	.
!	!	!LO:LB:g=original	!	!	!	!LO:LB:g=original	!	!	!	!	!
=19	=19	=19	=19	=19	=19	=19	=19	=19	=19	=19	=19
*	*	*	*	*	*	*^	*	*	*	*	*
!	!	!	!	!	!	!	!	!	!	!	!LO:N:vis=2	!
*	*	*2\right	*	*	*	*	*	*	*	*	*	*
*	*	*tremolo	*	*	*	*	*	*	*	*	*	*
4G\	.	8g\L	.	4G/ 4d/ 4b/	.	4ff/	4a\	.	4g/	4dd\	1g/	1gg\
.	.	8g\	.	.	.	.	.	.	.	.	.	.
4r	.	8g\	.	4r	.	8ddd\L	4rgyy	.	4r	4r	.	.
.	.	8g\J	.	.	.	8ff\J	.	.	.	.	.	.
4C/	.	8g\L	.	4G/ 4e/ 4cc/	.	4ee/	4g\	.	4cc\	4ee\	.	.
.	.	8g\	.	.	.	.	.	.	.	.	.	.
4r	.	8g\	.	4r	.	8ccc\L	4rgyy	.	4r	4r	.	.
.	.	8g\J	.	.	.	8ee\J	.	.	.	.	.	.
*	*	*	*	*	*	*v	*v	*	*	*	*	*
!	!	!	!	!LO:LB:g=original	!	!	!	!LO:LB:g=original	!	!	!
=20	=20	=20	=20	=20	=20	=20	=20	=20	=20	=20	=20
!LO:SIC:o:s=:v:f = fr lub for&colon;global	!	!	!	!	!	!	!	!	!	!	!
4G\	f	8g\L	.	4G/ 4d/ 4b/	.	4g/ 4ff/	.	4g/	4dd\	1g/	1gg\
.	.	8g\	.	.	.	.	.	.	.	.	.
4r	.	8g\	.	4r	.	8ddd\L	.	4r	4r	.	.
.	.	8g\J	.	.	.	8ff\J	.	.	.	.	.
!	!	!	!	!	!	!	!	!LO:SIC:o:s=:v:4cc&colon;t=niejednoznaczny zapis wysokości	!	!	!
4C/	.	8g\L	.	4G/ 4e/ 4cc/	.	4g/ 4ee/	.	4cc\ 4dd\	4ee\	.	.
.	.	8g\	.	.	.	.	.	.	.	.	.
4r	.	8g\	.	4r	.	8ccc\L	.	4r	4r	.	.
.	.	8g\J	.	.	.	8ee\J	.	.	.	.	.
=21	=21	=21	=21	=21	=21	=21	=21	=21	=21	=21	=21
4G\	.	8g\L	.	4G/ 4d/ 4b/	.	4g/ 4ff/	.	4g/	4dd\	1g/	1gg\
.	.	8g\	.	.	.	.	.	.	.	.	.
4C/	.	8g\	.	4G/ 4e/ 4cc/	.	4g/ 4ee/	.	4cc\	4ee\	.	.
.	.	8g\J	.	.	.	.	.	.	.	.	.
!LO:LB:g=original	!	!	!	!	!	!	!	!	!	!	!
4G\	.	8g\L	.	4G/ 4d/ 4b/	.	4g/ 4ff/	.	4g/	4dd\	.	.
.	.	8g\	.	.	.	.	.	.	.	.	.
4C/	.	8g\	.	4G/ 4e/ 4cc/	.	4g/ 4ee/	.	4cc\	4ee\	.	.
.	.	8g\J	.	.	.	.	.	.	.	.	.
!	!	!	!	!	!	!	!	!	!LO:LB:g=original	!	!
=22	=22	=22	=22	=22	=22	=22	=22	=22	=22	=22	=22
4G\	.	4g\	.	4G/ 4d/ 4b/	.	4g/ 4dd/	.	4g/	4dd\	4g/	4gg\
4G\	.	4g\	.	4G/ 4d/ 4b/	.	4g/ 4dd/ 4bb/	.	4g/	4dd\	4b\	4gg\
4G\	.	4g\	.	4G/ 4d/ 4b/	.	4g/ 4dd/ 4bb/	.	4g/	4dd\	4b\	4gg\
4r	.	4r	.	4r	.	4r	.	4r	4r	4r	4r
=23	=23	=23	=23	=23	=23	=23	=23	=23	=23	=23	=23
*	*	*	*	*2\right	*	*	*	*	*	*	*
!	!	!	!	!	!	!LO:SIC:o:s=:v:p = pia&colon;global	!	!	!	!	!
0r	.	8g\L	.	[2gg\	p	1bb\	p	00r	00r	00r	00r
.	.	8g\	.	.	.	.	.	.	.	.	.
.	.	8g\	.	.	.	.	.	.	.	.	.
.	.	8g\J	.	.	.	.	.	.	.	.	.
.	.	8g\L	.	2gg\]	.	.	.	.	.	.	.
.	.	8g\	.	.	.	.	.	.	.	.	.
.	.	8g\	.	.	.	.	.	.	.	.	.
.	.	8g\J	.	.	.	.	.	.	.	.	.
=24	=24	=24	=24	=24	=24	=24	=24	=24	=24	=24	=24
.	.	8g\L	.	2dd\	.	2gg\	.	.	.	.	.
.	.	8g\	.	.	.	.	.	.	.	.	.
.	.	8g\	.	.	.	.	.	.	.	.	.
.	.	8g\J	.	.	.	.	.	.	.	.	.
.	.	8g\L	.	2b\	.	2dd\	.	.	.	.	.
.	.	8g\	.	.	.	.	.	.	.	.	.
.	.	8g\	.	.	.	.	.	.	.	.	.
.	.	8g\J	.	.	.	.	.	.	.	.	.
=25	=25	=25	=25	=25	=25	=25	=25	=25	=25	=25	=25
!	!	!LO:SIC:o=:v:znak początku repetycji	!	!	!	!	!	!	!	!	!
4r	.	4d\	.	2a/	.	2cc\	.	.	.	.	.
(16c#X\KL	.	4r	.	.	.	.	.	.	.	.	.
8.d\J)	.	.	.	.	.	.	.	.	.	.	.
4D/	.	2r	.	2r	.	2r	.	.	.	.	.
(16c#X\KL	.	.	.	.	.	.	.	.	.	.	.
8.d\J)	.	.	.	.	.	.	.	.	.	.	.
!	!	!	!	!	!	!LO:LB:g=original	!	!	!	!	!
=26	=26	=26	=26	=26	=26	=26	=26	=26	=26	=26	=26
4D\	.	1r	.	8r	.	8r	.	.	.	.	.
.	.	.	.	8f#X/L	.	8a\L	.	.	.	.	.
4r	.	.	.	8f#/	.	8a\	.	.	.	.	.
.	.	.	.	8a/J	.	8cc\J	.	.	.	.	.
2r	.	.	.	8a\L	.	8cc\L	.	.	.	.	.
.	.	.	.	8cc\	.	8ff#X\	.	.	.	.	.
.	.	.	.	8cc\	.	8ff#\	.	.	.	.	.
.	.	.	.	8ff#X\J	.	8aa\J	.	.	.	.	.
!	!	!	!	!LO:LB:g=original	!	!	!	!	!	!	!
=27	=27	=27	=27	=27	=27	=27	=27	=27	=27	=27	=27
!	!	!LO:TX:a:t=bis	!	!LO:SIC:o:s=:v:1ff#	!	!	!	!	!	!	!
0r	.	8d\L	.	1ff\	.	1aa\	.	00r	00r	00r	00r
.	.	8d\	.	.	.	.	.	.	.	.	.
.	.	8d\	.	.	.	.	.	.	.	.	.
.	.	8d\J	.	.	.	.	.	.	.	.	.
.	.	8d\L	.	.	.	.	.	.	.	.	.
.	.	8d\	.	.	.	.	.	.	.	.	.
.	.	8d\	.	.	.	.	.	.	.	.	.
.	.	8d\J	.	.	.	.	.	.	.	.	.
=28	=28	=28	=28	=28	=28	=28	=28	=28	=28	=28	=28
.	.	8d\L	.	2cc\	.	2ff#X\	.	.	.	.	.
.	.	8d\	.	.	.	.	.	.	.	.	.
.	.	8d\	.	.	.	.	.	.	.	.	.
.	.	8d\J	.	.	.	.	.	.	.	.	.
!	!	!LO:SIC:o:s=:v:znak końca repetycji	!	!	!	!	!	!	!	!	!
.	.	8d\L	.	2a/	.	2cc\	.	.	.	.	.
.	.	8d\	.	.	.	.	.	.	.	.	.
.	.	8d\	.	.	.	.	.	.	.	.	.
.	.	8d\J	.	.	.	.	.	.	.	.	.
!LO:LB:g=original	!	!LO:LB:g=original	!	!	!	!	!	!	!	!	!
=29	=29	=29	=29	=29	=29	=29	=29	=29	=29	=29	=29
!	!	!LO:SIC:o:s=:v:powtórzenie tt. 25-28 oznaczone znakami repetycji adnotacja "bis"	!	!	!	!	!	!	!	!	!
4r	.	4d\	.	2g/	.	2b\	.	.	.	.	.
(16c#X\KL	.	4r	.	.	.	.	.	.	.	.	.
8.d\J)	.	.	.	.	.	.	.	.	.	.	.
4D/	.	2r	.	2r	.	2r	.	.	.	.	.
(16c#X\KL	.	.	.	.	.	.	.	.	.	.	.
8.d\J)	.	.	.	.	.	.	.	.	.	.	.
=30	=30	=30	=30	=30	=30	=30	=30	=30	=30	=30	=30
4D\	.	1r	.	8r	.	8r	.	.	.	.	.
.	.	.	.	8g/L	.	8g/L	.	.	.	.	.
4r	.	.	.	8g/	.	8b-X/	.	.	.	.	.
!	!	!	!	!LO:SIC:o:s=:v:8b-	!	!	!	!	!	!	!
.	.	.	.	8b/J	.	8dd/J	.	.	.	.	.
!	!	!	!	!LO:SIC:o:s=:v:8b-	!	!	!	!	!	!	!
2r	.	.	.	8b\L	.	8dd\L	.	.	.	.	.
.	.	.	.	8dd\	.	8gg\	.	.	.	.	.
.	.	.	.	8dd\	.	8gg\	.	.	.	.	.
.	.	.	.	8gg\J	.	8bb-X\J	.	.	.	.	.
=31	=31	=31	=31	=31	=31	=31	=31	=31	=31	=31	=31
!	!	!	!	!	!	!LO:SIC:o:s=:v:1bb-	!	!	!	!	!
0r	.	8d\L	.	1gg\	.	1bb\	.	00r	00r	00r	00r
.	.	8d\	.	.	.	.	.	.	.	.	.
.	.	8d\	.	.	.	.	.	.	.	.	.
.	.	8d\J	.	.	.	.	.	.	.	.	.
.	.	8d\L	.	.	.	.	.	.	.	.	.
.	.	8d\	.	.	.	.	.	.	.	.	.
.	.	8d\	.	.	.	.	.	.	.	.	.
.	.	8d\J	.	.	.	.	.	.	.	.	.
=32	=32	=32	=32	=32	=32	=32	=32	=32	=32	=32	=32
.	.	8d\L	.	2dd\	.	2gg\	.	.	.	.	.
.	.	8d\	.	.	.	.	.	.	.	.	.
.	.	8d\	.	.	.	.	.	.	.	.	.
.	.	8d\J	.	.	.	.	.	.	.	.	.
.	.	8d\L	.	2b-X\	.	2dd\	.	.	.	.	.
.	.	8d\	.	.	.	.	.	.	.	.	.
.	.	8d\	.	.	.	.	.	.	.	.	.
.	.	8d\J	.	.	.	.	.	.	.	.	.
=33	=33	=33	=33	=33	=33	=33	=33	=33	=33	=33	=33
4r	.	4d\	.	2a/	.	2cc\	.	.	.	.	.
(16c#X\KL	.	4r	.	.	.	.	.	.	.	.	.
8.d\J)	.	.	.	.	.	.	.	.	.	.	.
4D/	.	2r	.	2r	.	2r	.	.	.	.	.
(16c#X\KL	.	.	.	.	.	.	.	.	.	.	.
8.d\J)	.	.	.	.	.	.	.	.	.	.	.
!	!	!	!	!	!	!LO:LB:g=original	!	!	!	!	!
=34	=34	=34	=34	=34	=34	=34	=34	=34	=34	=34	=34
!	!	!LO:TX:a:t=1	!	!	!	!	!	!	!	!	!
4D/	.	1r	.	8r	.	8r	.	.	.	.	.
.	.	.	.	8f#X/L	.	8a\L	.	.	.	.	.
4r	.	.	.	8f#/	.	8a\	.	.	.	.	.
.	.	.	.	8a/J	.	8cc\J	.	.	.	.	.
2r	.	.	.	8a\L	.	8cc\L	.	.	.	.	.
.	.	.	.	8cc\	.	8ff#X\	.	.	.	.	.
.	.	.	.	8cc\	.	8ff#\	.	.	.	.	.
.	.	.	.	8ff#X\J	.	8aa\J	.	.	.	.	.
!	!	!	!	!LO:LB:g=original	!	!	!	!	!	!	!
=35	=35	=35	=35	=35	=35	=35	=35	=35	=35	=35	=35
!	!	!	!	!LO:SIC:o:s=:v:1ff#	!	!	!	!	!	!	!
0r	.	8d\L	.	1ff\	.	1aa\	.	00r	00r	00r	00r
.	.	8d\	.	.	.	.	.	.	.	.	.
.	.	8d\	.	.	.	.	.	.	.	.	.
.	.	8d\J	.	.	.	.	.	.	.	.	.
.	.	8d\L	.	.	.	.	.	.	.	.	.
.	.	8d\	.	.	.	.	.	.	.	.	.
.	.	8d\	.	.	.	.	.	.	.	.	.
.	.	8d\J	.	.	.	.	.	.	.	.	.
=36	=36	=36	=36	=36	=36	=36	=36	=36	=36	=36	=36
.	.	8d\L	.	2cc\	.	2ff#X\	.	.	.	.	.
.	.	8d\	.	.	.	.	.	.	.	.	.
.	.	8d\	.	.	.	.	.	.	.	.	.
.	.	8d\J	.	.	.	.	.	.	.	.	.
.	.	8d\L	.	2a/	.	2cc\	.	.	.	.	.
.	.	8d\	.	.	.	.	.	.	.	.	.
.	.	8d\	.	.	.	.	.	.	.	.	.
.	.	8d\J	.	.	.	.	.	.	.	.	.
=37	=37	=37	=37	=37	=37	=37	=37	=37	=37	=37	=37
4r	.	8d\L	.	2g/	.	2b\	.	.	.	.	.
.	.	8d\	.	.	.	.	.	.	.	.	.
(16c#X\KL	.	8d\	.	.	.	.	.	.	.	.	.
8.d\J)	.	.	.	.	.	.	.	.	.	.	.
.	.	8d\J	.	.	.	.	.	.	.	.	.
4D/	.	8d\L	.	4r	.	4r	.	.	.	.	.
.	.	8d\	.	.	.	.	.	.	.	.	.
4r	.	8d\	.	4cc#X\	.	4gg\	.	.	.	.	.
.	.	8d\J	.	.	.	.	.	.	.	.	.
=38	=38	=38	=38	=38	=38	=38	=38	=38	=38	=38	=38
4r	.	8d\L	.	2dd\	.	2ff#X\	.	.	.	.	.
.	.	8d\	.	.	.	.	.	.	.	.	.
(16c#X\KL	.	8d\	.	.	.	.	.	.	.	.	.
8.d\J)	.	.	.	.	.	.	.	.	.	.	.
.	.	8d\J	.	.	.	.	.	.	.	.	.
4D/	.	8d\L	.	4r	.	4r	.	.	.	.	.
.	.	8d\	.	.	.	.	.	.	.	.	.
4r	.	8d\	.	4g/	.	4cc#X\	.	.	.	.	.
.	.	8d\J	.	.	.	.	.	.	.	.	.
=39	=39	=39	=39	=39	=39	=39	=39	=39	=39	=39	=39
!	!	!	!	!	!	!	!	!	!	!LO:SIC:o:s=:v:brak tt. 39-41	!
4r	.	8d\L	.	2f#X/	.	2dd\	.	0r	0r	0ryy	0r
.	.	8d\	.	.	.	.	.	.	.	.	.
(16c#X\KL	.	8d\	.	.	.	.	.	.	.	.	.
8.d\J)	.	.	.	.	.	.	.	.	.	.	.
.	.	8d\J	.	.	.	.	.	.	.	.	.
4D/	.	8d\L	.	4r	.	4r	.	.	.	.	.
.	.	8d\	.	.	.	.	.	.	.	.	.
4r	.	8d\	.	4cc#X\	.	4gg\	.	.	.	.	.
.	.	8d\J	.	.	.	.	.	.	.	.	.
=40	=40	=40	=40	=40	=40	=40	=40	=40	=40	=40	=40
4r	.	8d\L	.	2dd\	.	2ff#X\	.	.	.	.	.
.	.	8d\	.	.	.	.	.	.	.	.	.
(16c#X\KL	.	8d\	.	.	.	.	.	.	.	.	.
8.d\J)	.	.	.	.	.	.	.	.	.	.	.
.	.	8d\J	.	.	.	.	.	.	.	.	.
4D/	.	8d\L	.	4r	.	4r	.	.	.	.	.
.	.	8d\	.	.	.	.	.	.	.	.	.
4r	.	8d\	.	4gg\	.	4cc#X\	.	.	.	.	.
.	.	8d\J	.	.	.	.	.	.	.	.	.
!LO:LB:g=original	!	!	!	!	!	!LO:LB:g=original	!	!	!	!	!
=41	=41	=41	=41	=41	=41	=41	=41	=41	=41	=41	=41
4r	.	8d\L	.	2ff#X\	.	2dd\	.	1r	1r	1ryy	1r
.	.	8d\	.	.	.	.	.	.	.	.	.
(16c#X\KL	.	8d\	.	.	.	.	.	.	.	.	.
8.d\J)	.	.	.	.	.	.	.	.	.	.	.
.	.	8d\J	.	.	.	.	.	.	.	.	.
*	*	*Xtremolo	*	*	*	*	*	*	*	*	*
4D/	.	8d/L	.	4r	.	4r	.	.	.	.	.
.	.	8d/	.	.	.	.	.	.	.	.	.
!	!	!	!	!LO:SIC:o:s=:v:4f#	!	!	!	!	!	!	!
4C/	f	8c/	.	4f/	f	4dd\	.	.	.	.	.
.	.	8c/J	.	.	.	.	.	.	.	.	.
!	!	!LO:LB:g=original	!	!	!	!	!	!	!	!	!
=42	=42	=42	=42	=42	=42	=42	=42	=42	=42	=42	=42
!	!	!	!	!	!	!LO:SIC:o:s=:v:ff = ffor&colon;global	!	!	!	!	!LO:SIC:o=:v:znak początku repetycji
8BB/L	.	8B/L	.	8g/L	.	8gg\L	ff	1g/	1g/	1g/	1gg\
8BB/	.	8B/	.	8f#X/	.	8ff#X\	.	.	.	.	.
8GG/	.	8G/	.	8g/	.	8gg\	.	.	.	.	.
8GG/J	.	8G/J	.	8f#/J	.	8ff#\J	.	.	.	.	.
!	!	!	!	!LO:LB:g=original	!	!	!	!	!	!	!
8BB/L	.	8B/L	.	8g/L	.	8gg\L	.	.	.	.	.
8BB/	.	8B/	.	8fn/	.	8ffn\	.	.	.	.	.
8GG/	.	8G/	.	8e/	.	8ee\	.	.	.	.	.
8GG/J	.	8G/J	.	8d#X/J	.	8dd#X\J	.	.	.	.	.
=43	=43	=43	=43	=43	=43	=43	=43	=43	=43	=43	=43
!	!	!	!	!LO:SIC:o:s=:v:8d#	!	!	!	!	!	!	!
.	.	.	.	.	.	8qqdd#X/	.	.	.	.	.
8C/L	.	8c/L	.	8d/L	.	4ee\	.	1g/	1g/	1g/	1gg\
8C/	.	8c/	.	8e/J	.	.	.	.	.	.	.
8GG/	.	8G/	.	2e/	.	2ee\	.	.	.	.	.
8GG/J	.	8G/J	.	.	.	.	.	.	.	.	.
8C/L	.	8c/L	.	.	.	.	.	.	.	.	.
8C/	.	8c/	.	.	.	.	.	.	.	.	.
!	!	!	!	!	!	!LO:SIC:o:s=:v:ozdobnik[tryl | mordent] - przyjęto tryl	!	!	!	!	!
8GG/	.	8G/	.	8.f#X/L	.	8.ff#Xt\L	.	.	.	.	.
8GG/J	.	8G/J	.	.	.	.	.	.	.	.	.
.	.	.	.	32e/LL	.	32ee\LL	.	.	.	.	.
.	.	.	.	32f#/JJJ	.	32ff#\JJJ	.	.	.	.	.
=44	=44	=44	=44	=44	=44	=44	=44	=44	=44	=44	=44
8C/L	.	8c/L	.	8g/L	.	8gg\L	.	1g/	1g/	1g/	1gg\
8C/	.	8c/	.	8f#X/	.	8ff#X\	.	.	.	.	.
8GG/	.	8G/	.	8g/	.	8gg\	.	.	.	.	.
8GG/J	.	8G/J	.	8f#/J	.	8ff#\J	.	.	.	.	.
8C/L	.	8c/L	.	8g/L	.	8gg\L	.	.	.	.	.
8C/	.	8c/	.	8e/	.	8ee\	.	.	.	.	.
8GG/	.	8G/	.	8d/	.	8dd\	.	.	.	.	.
8GG/J	.	8G/J	.	8c#X/J	.	8cc#X\J	.	.	.	.	.
=45	=45	=45	=45	=45	=45	=45	=45	=45	=45	=45	=45
!	!	!	!	!LO:SIC:o:s=:v:8qc#	!	!LO:SIC:o:s=:v:8qcc#	!	!	!	!	!
.	.	.	.	8qqc/	.	8qqcc/	.	.	.	.	.
8BB/L	.	8B/L	.	4d/	.	4dd\	.	1g/	1g/	1g/	1gg\
8BB/	.	8B/	.	.	.	.	.	.	.	.	.
8GG/	.	8G/	.	2d/	.	2dd\	.	.	.	.	.
8GG/J	.	8G/J	.	.	.	.	.	.	.	.	.
8BB/L	.	8B/L	.	.	.	.	.	.	.	.	.
8BB/	.	8B/	.	.	.	.	.	.	.	.	.
8GG/	.	8G/	.	8.f#X/L	.	8.ff#Xt\L	.	.	.	.	.
8GG/J	.	8G/J	.	.	.	.	.	.	.	.	.
.	.	.	.	32e/LL	.	32ee\LL	.	.	.	.	.
.	.	.	.	32f#/JJJ	.	32ff#\JJJ	.	.	.	.	.
!LO:LB:g=original	!	!	!	!	!	!LO:LB:g=original	!	!	!	!	!
=46	=46	=46	=46	=46	=46	=46	=46	=46	=46	=46	=46
!	!	!	!	!LO:SIC:o:s=:v:niejednoznaczny zapis łuków w t. 46	!	!	!	!	!	!	!
8BB/L	.	8B/L	.	(8g/L	.	8gg\L	.	1g/	1g/	1g/	1gg\
8BB/	.	8B/	.	8f#X/	.	8ff#X\	.	.	.	.	.
8GG/	.	8G/	.	8g/	.	8gg\	.	.	.	.	.
8GG/J	.	8G/J	.	8f#/J)	.	8ff#\J	.	.	.	.	.
8BB/L	.	8B/L	.	(8g/L	.	8gg\L	.	.	.	.	.
8BB/	.	8B/	.	8fn/	.	8ffn\	.	.	.	.	.
8GG/	.	8G/	.	8e/	.	8ee\	.	.	.	.	.
8GG/J	.	8G/J	.	8d#X/J)	.	8dd#X\J	.	.	.	.	.
!	!	!	!	!LO:LB:g=original	!	!	!	!	!	!	!
=47	=47	=47	=47	=47	=47	=47	=47	=47	=47	=47	=47
8C\L	.	8c\L	.	8e/L	.	8ee\L	.	1cc\	1ee\	1ee\	1gg\
8C\	.	8c\	.	8f#X/	.	8ff#X\	.	.	.	.	.
8E\	.	8e\	.	8g/	.	8gg\	.	.	.	.	.
8E\J	.	8e\J	.	8f#/J	.	8ff#\J	.	.	.	.	.
8C\L	.	8c\L	.	8g/L	.	8gg\L	.	.	.	.	.
8C\	.	8c\	.	8e/	.	8ee\	.	.	.	.	.
8E\	.	8e\	.	8d/	.	8dd\	.	.	.	.	.
8E\J	.	8e\J	.	8c/J	.	8cc\J	.	.	.	.	.
!	!	!LO:LB:g=original	!	!	!	!	!	!	!	!	!
=48	=48	=48	=48	=48	=48	=48	=48	=48	=48	=48	=48
*tremolo	*	*tremolo	*	*	*	*	*	*	*	*	*
8D/L	.	8d\L	.	8B/L	.	8b\L	.	1dd\	1dd\	1b\	1dd\
8D/	.	8d\	.	8c/	.	8cc\	.	.	.	.	.
8D/	.	8d\	.	8d/	.	8dd\	.	.	.	.	.
8D/J	.	8d\J	.	8c/J	.	8cc\J	.	.	.	.	.
8D/L	.	8d\L	.	8d/L	.	8dd\L	.	.	.	.	.
8D/	.	8d\	.	8B/	.	8b\	.	.	.	.	.
8D/	.	8d\	.	8A/	.	8a\	.	.	.	.	.
8D/J	.	8d\J	.	8G/J	.	8g\J	.	.	.	.	.
!	!	!	!	!	!	!	!	!	!	!LO:LB:g=original	!
=49	=49	=49	=49	=49	=49	=49	=49	=49	=49	=49	=49
!	!	!	!	!	!	!	!	!	!	!LO:N:vis=2	!
!	!	!	!	!	!	!	!	!	!	!LO:SIC:o:s=:v:niejednoznaczny zapis [1f# lub 2f#]	!LO:SIC:o:s=:v:znak końca repetycji
8D/L	.	8d\L	.	8A/L	.	8a\L	.	1dd\	1dd\	1f#X/	1a/
8D/	.	8d\	.	8B/	.	8b\	.	.	.	.	.
8D/	.	8d\	.	8c/	.	8cc\	.	.	.	.	.
8D/J	.	8d\J	.	8B/J	.	8b\J	.	.	.	.	.
8D/L	.	8d\L	.	2c/	.	8cc\L	.	.	.	.	.
8D/	.	8d\	.	.	.	8a\	.	.	.	.	.
8D/	.	8d\	.	.	.	8g\	.	.	.	.	.
8D/J	.	8d\J	.	.	.	8f#X\J	.	.	.	.	.
*Xtremolo	*	*Xtremolo	*	*	*	*	*	*	*	*	*
=50	=50	=50	=50	=50	=50	=50	=50	=50	=50	=50	=50
!LO:SIC:o:s=:v:p = pi&colon;global	!	!	!	!	!	!LO:DY:t=piano	!	!	!	!	!LO:SIC:o:s=:v:powtórzenie tt. 42-49 oznaczone znakami repetycji
8G\L	p	8B/L	p	8B/L	p	8gg\L	p	1g/	1gg\	1g/	1ggyy\
8G\	.	8B/	.	8d/	.	8ff#X\	.	.	.	.	.
8G\	.	8G/	.	8g/	.	8gg\	.	.	.	.	.
8G\J	.	8G/J	.	8f#X/J	.	8ff#\J	.	.	.	.	.
8B\L	.	8B/L	.	8g/L	.	8gg\L	.	.	.	.	.
8B\	.	8B/	.	8fn/	.	8ffn\	.	.	.	.	.
8G\	.	8G/	.	8e/	.	8ee\	.	.	.	.	.
8G\J	.	8G/J	.	8d#X/J	.	8dd#X\J	.	.	.	.	.
!	!	!	!	!	!	!LO:LB:g=original	!	!	!	!	!
=51	=51	=51	=51	=51	=51	=51	=51	=51	=51	=51	=51
!	!	!	!	!LO:SIC:o:s=:v:8qd#	!	!LO:SIC:o:s=:v:8qdd#	!	!	!	!	!
.	.	.	.	8qqd/	.	8qqdd/	.	.	.	.	.
8c\L	.	8c/L	.	4e/	.	4ee\	.	1g/	1gg\	1g/	1ggyy\
8c\	.	8c/	.	.	.	.	.	.	.	.	.
8G\	.	8G/	.	2e/	.	2ee\	.	.	.	.	.
8G\J	.	8G/J	.	.	.	.	.	.	.	.	.
8c\L	.	8c/L	.	.	.	.	.	.	.	.	.
8c\	.	8c/	.	.	.	.	.	.	.	.	.
8G\	.	8G/	.	8.f#X/L	.	8.ff#Xt\L	.	.	.	.	.
8G\J	.	8G/J	.	.	.	.	.	.	.	.	.
.	.	.	.	32e/LL	.	32ee\LL	.	.	.	.	.
.	.	.	.	32f#/JJJ	.	32ff#\JJJ	.	.	.	.	.
!LO:LB:g=original	!	!	!	!LO:LB:g=original	!	!	!	!LO:LB:g=original	!	!	!
=52	=52	=52	=52	=52	=52	=52	=52	=52	=52	=52	=52
!	!	!	!	!LO:SIC:o:s=:v:niejednoznaczny zapis łuków w t. 52	!	!	!	!	!	!	!
8c\L	.	8c/L	.	(8g/L	.	8gg\L	.	1g/	1gg\	1g/	1ggyy\
8c\	.	8c/	.	8f#X/	.	8ff#X\	.	.	.	.	.
8G\	.	8G/	.	8g/	.	8gg\	.	.	.	.	.
8G\J	.	8G/J	.	8f#/J)	.	8ff#\J	.	.	.	.	.
8c\L	.	8c/L	.	(8g/L	.	8gg\L	.	.	.	.	.
8c\	.	8c/	.	8e/	.	8ee\	.	.	.	.	.
8G\	.	8G/	.	8d/	.	8dd\	.	.	.	.	.
8G\J	.	8G/J	.	8c#X/J)	.	8cc#X\J	.	.	.	.	.
=53	=53	=53	=53	=53	=53	=53	=53	=53	=53	=53	=53
!	!	!	!	!LO:SIC:o:s=:v:8qc#	!	!LO:SIC:o:s=:v:8qcc#	!	!	!	!	!
.	.	.	.	8qqc/	.	8qqcc/	.	.	.	.	.
8B\L	.	8B/L	.	4d/	.	4dd\	.	1g/	1gg\	1g/	1ggyy\
8B\	.	8B/	.	.	.	.	.	.	.	.	.
8G\	.	8G/	.	2d/	.	2dd\	.	.	.	.	.
8G\J	.	8G/J	.	.	.	.	.	.	.	.	.
8B\L	.	8B/L	.	.	.	.	.	.	.	.	.
8B\	.	8B/	.	.	.	.	.	.	.	.	.
8G\	.	8G/	.	8.f#X/L	.	8.ff#Xt\L	.	.	.	.	.
8G\J	.	8G/J	.	.	.	.	.	.	.	.	.
.	.	.	.	32e/LL	.	32ee\LL	.	.	.	.	.
.	.	.	.	32f#/JJJ	.	32ff#\JJJ	.	.	.	.	.
=54	=54	=54	=54	=54	=54	=54	=54	=54	=54	=54	=54
8B\L	.	8B/L	.	8g/L	.	8gg\L	.	1g/	1gg\	1g/	1ggyy\
8B\	.	8B/	.	8f#X/	.	8ff#X\	.	.	.	.	.
8G\	.	8G/	.	8g/	.	8gg\	.	.	.	.	.
8G\J	.	8G/J	.	8f#/J	.	8ff#\J	.	.	.	.	.
8B\L	.	8B/L	.	8g/L	.	8gg\L	.	.	.	.	.
8B\	.	8B/	.	8fn/	.	8ffn\	.	.	.	.	.
8G\	.	8G/	.	8e/	.	8ee\	.	.	.	.	.
!	!	!	!	!	!	!LO:SIC:o:s=:v:8dd#&colon;t=zgodnie z t. 46 i vl II	!	!	!	!	!
8G\J	.	8G/J	.	8d#X/J	.	8dd\J	.	.	.	.	.
!	!	!LO:LB:g=original	!	!	!	!	!	!	!	!	!
=55	=55	=55	=55	=55	=55	=55	=55	=55	=55	=55	=55
8c\L	.	8c/L	.	8e/L	.	8ee\L	.	1cc\	1ee\	1g/	1ggyy\
8c\	.	8c/	.	8f#X/	.	8ff#X\	.	.	.	.	.
8e\	.	8G/	.	8g/	.	8gg\	.	.	.	.	.
8e\J	.	8G/J	.	8f#/J	.	8ff#\J	.	.	.	.	.
8c\L	.	8c/L	.	8g/L	.	8gg\L	.	.	.	.	.
8c\	.	8c/	.	8e/	.	8ee\	.	.	.	.	.
8e\	.	8G/	.	8d/	.	8dd\	.	.	.	.	.
8e\J	.	8G/J	.	8c/J	.	8cc\J	.	.	.	.	.
!	!	!	!	!	!	!LO:LB:g=original	!	!	!LO:LB:g=original	!	!
=56	=56	=56	=56	=56	=56	=56	=56	=56	=56	=56	=56
*tremolo	*	*tremolo	*	*	*	*	*	*	*	*	*
*2\right	*	*	*	*	*	*	*	*	*	*	*
8d/L	.	8d\L	.	8B/L	.	8b\L	.	1dd\	1dd\	1b\	1ddyy\
8d/	.	8d\	.	8c/	.	8cc\	.	.	.	.	.
8d/	.	8d\	.	8d/	.	8dd\	.	.	.	.	.
8d/J	.	8d\J	.	8c/J	.	8cc\J	.	.	.	.	.
8d/L	.	8d\L	.	8d/L	.	8dd\L	.	.	.	.	.
8d/	.	8d\	.	8B/	.	8b\	.	.	.	.	.
8d/	.	8d\	.	8A/	.	8a\	.	.	.	.	.
8d/J	.	8d\J	.	8G/J	.	8g\J	.	.	.	.	.
!	!	!	!	!LO:LB:g=original	!	!	!	!	!	!	!
=57	=57	=57	=57	=57	=57	=57	=57	=57	=57	=57	=57
8D/L	.	8d\L	.	8A/L	.	8a\L	.	1dd\	1dd\	1f#X/	1ayy/
8D/	.	8d\	.	8B/	.	8b\	.	.	.	.	.
8D/	.	8d\	.	8c/	.	8cc\	.	.	.	.	.
8D/J	.	8d\J	.	8B/J	.	8b\J	.	.	.	.	.
8D/L	.	8d\L	.	4c/	.	8cc/L	.	.	.	.	.
8D/	.	8d\	.	.	.	8a/	.	.	.	.	.
8D/	.	8d\	.	4A/	.	8g/	.	.	.	.	.
8D/J	.	8d\J	.	.	.	8f#X/J	.	.	.	.	.
*Xtremlo	*	*Xtremolo	*	*	*	*	*	*	*	*	*
!LO:LB:g=original	!	!	!	!	!	!	!	!	!	!	!
=58	=58	=58	=58	=58	=58	=58	=58	=58	=58	=58	=58
*	*	*	*	*	*	*^	*	*	*	*	*
!	!	!LO:SIC:o:s=:v:f = fr lub for&colon;global	!	!LO:SIC:o:s=:v:ff = ffor&colon;global	!	!	!	!	!	!	!	!
4G\	.	4g\	f	4G/ 4g/	ff	4g/	4reyy	.	4g/	4dd\	4g/	4g/
4G\	.	4g\	.	4G/ 4g/ 4b/	.	4gg/	4dd\	.	4g/	4dd\	4g/	4gg\
4G\	.	4g\	.	4G/ 4g/ 4cc/	.	4gg/	4dd\	.	4cc/	4ee\	4g/	4gg\
4G\	.	4g\	.	4G/ 4g/ 4b/	.	4gg/	4dd\	.	4g/	4dd\	4g/	4gg\
=59	=59	=59	=59	=59	=59	=59	=59	=59	=59	=59	=59	=59
4G\	.	4g\	.	4G/ 4g/ 4cc/	.	4gg/	4ee\	.	4cc/	4ee\	4g/	4gg\
4G\	.	4g\	.	4G/ 4g/ 4b/	.	4gg/	4dd\	.	4g/	4dd\	4g/	4gg\
4G\	.	4g\	.	4G/ 4g/ 4cc/	.	4gg/	4ee\	.	4cc/	4ee\	4g/	4gg\
4G\	.	4g\	.	4G/ 4g/ 4b/	.	4a/ 4ff#X/	4reyy	.	4g/	4dd\	4cc/	4ff#X\
=60	=60	=60	=60	=60	=60	=60	=60	=60	=60	=60	=60	=60
4G\	.	4g\	.	4G/ 4d/ 4b/	.	4d/ 4b/ 4gg/	4rcyy	.	4g/	4dd\	4b/	4g/
4G\	.	4g\	.	4G/ 4g/ 4b/	.	4gg/	4dd\	.	4g/	4dd\	4g/	4gg\
4G\	.	4g\	.	4G/ 4g/ 4cc/	.	4gg/	4ee\	.	4cc/	4ee\	4g/	4gg\
4G\	.	4g\	.	4G/ 4g/ 4b/	.	4gg/	4dd\	.	4g/	4dd\	4g/	4gg\
!	!	!	!	!	!	!	!	!	!	!	!LO:LB:g=original	!
=61	=61	=61	=61	=61	=61	=61	=61	=61	=61	=61	=61	=61
4G\	.	4g\	.	4G/ 4g/ 4cc/	.	4gg/	4ee\	.	4cc/	4ee\	4g/	4gg\
4G\	.	4g\	.	4G/ 4g/ 4b/	.	4gg/	4dd\	.	4g/	4dd\	4g/	4gg\
4G\	.	4g\	.	4G/ 4g/ 4cc/	.	4gg/	4ee\	.	4cc/	4ee\	4g/	4gg\
!	!	!	!	!	!	!	!	!	!	!	!	!LO:SIC:o=:v:brak nuty, tylko ♯
4G\	.	4g\	.	4G/ 4g/ 4cc/	.	4a/ 4ff#X/	4rgyy	.	4dd/	4dd\	4cc\	4ff#X\
*	*	*	*	*	*	*v	*v	*	*	*	*	*
!	!	!	!	!	!	!LO:LB:g=original	!	!	!	!	!
=62	=62	=62	=62	=62	=62	=62	=62	=62	=62	=62	=62
4G\	.	4g\	.	4d/ 4b/	.	4d/ 4b/ 4gg/	.	4g/	4dd\	4b\	4gg\
4r	.	4r	.	8d/L 8b/	.	8gg/L	.	8g/L	8dd\L	8b\L	8gg\L
.	.	.	.	8dd/J	.	8bb/J	.	8g/J	8dd\J	8dd\J	8bb\J
!	!	!	!	!LO:LB:g=original	!	!	!	!	!	!	!
4G\	.	4g\	.	4G/ 4b/	.	4d/ 4b/ 4gg/	.	4g/	4dd\	4b\	4gg\
4r	.	4r	.	4G/ 4b/	.	4d/ 4b/ 4gg/	.	4g/	4dd\	4b\	4gg\
!	!	!LO:LB:g=original	!	!	!	!	!	!LO:LB:g=original	!	!	!LO:LB:g=original
=63	=63	=63	=63	=63	=63	=63	=63	=63	=63	=63	=63
2G\	.	2g\	.	2G/ 2d/ 2b/	.	2d/ 2b/ 2gg/	.	2g/	2dd\	2b\	2gg\
2r	.	2r	.	2r	.	2r	.	2r	2r	2r	2r
=64:|!|:	=64:|!|:	=64:|!|:	=64:|!|:	=64:|!|:	=64:|!|:	=64:|!|:	=64:|!|:	=64:|!|:	=64:|!|:	=64:|!|:	=64:|!|:
!LO:TX:a:t=2.	!	!	!	!	!	!	!	!	!	!	!
0r	.	2G/	.	0r	.	2g/	.	00r	00r	2g/	2g/
.	.	4B-X/	.	.	.	4b-X\	.	.	.	4b-X/	4b-X\
.	.	4d/	.	.	.	4dd\	.	.	.	4dd/	4dd\
=65	=65	=65	=65	=65	=65	=65	=65	=65	=65	=65	=65
.	.	8g\L	.	.	.	8gg\L	.	.	.	8gg\L	8gg\L
.	.	8a\	.	.	.	8aa\	.	.	.	8aa\	8aa\
.	.	8b-X\	.	.	.	8bb-X\	.	.	.	8bb-X\	8bb-X\
.	.	8a\J	.	.	.	8aa\J	.	.	.	8aa\J	8aa\J
.	.	8g\L	.	.	.	8gg\L	.	.	.	8gg\L	8gg\L
.	.	8f\	.	.	.	8ff\	.	.	.	8ff\	8ff\
.	.	8e\	.	.	.	8ee\	.	.	.	8ee\	8ee\
.	.	8d\J	.	.	.	8dd\J	.	.	.	8dd\J	8dd\J
!LO:LB:g=original	!	!	!	!	!	!	!	!	!	!	!
=66	=66	=66	=66	=66	=66	=66	=66	=66	=66	=66	=66
4r	.	2c#X/	.	4r	.	2cc#X\	.	.	.	00r	00r
4AA/	.	.	.	4A/	.	.	.	.	.	.	.
!	!	!	!	!LO:SIC:o:s=:v:4c#	!	!	!	!	!	!	!
4C#X/	.	2r	.	4c/	.	2r	.	.	.	.	.
4E/	.	.	.	4e/	.	.	.	.	.	.	.
!	!	!	!	!	!	!LO:LB:g=original	!	!	!	!	!
=67	=67	=67	=67	=67	=67	=67	=67	=67	=67	=67	=67
!LO:SIC:o:s=:v:niejednoznaczny zapis artykulacji w t. 67	!	!LO:TX:a:t=1	!	!	!	!LO:TX:a:t=1	!	!	!	!	!
8A`\L	.	1r	.	8a\L	.	1r	.	.	.	.	.
8c#X`\	.	.	.	8cc#X\	.	.	.	.	.	.	.
8e`\	.	.	.	8ee\	.	.	.	.	.	.	.
8d`\J	.	.	.	8dd\J	.	.	.	.	.	.	.
8c#`\L	.	.	.	8cc#/L	.	.	.	.	.	.	.
8B`\	.	.	.	8b/	.	.	.	.	.	.	.
8A`\	.	.	.	8a/	.	.	.	.	.	.	.
8G`\J	.	.	.	8g/J	.	.	.	.	.	.	.
=68	=68	=68	=68	=68	=68	=68	=68	=68	=68	=68	=68
2F\	.	4r	.	2f/	.	4r	.	00r	00r	.	.
.	.	4D/	.	.	.	4d/	.	.	.	.	.
2r	.	4F/	.	2r	.	4f/	.	.	.	.	.
.	.	4A/	.	.	.	4a/	.	.	.	.	.
=69	=69	=69	=69	=69	=69	=69	=69	=69	=69	=69	=69
!LO:TX:a:t=1	!	!	!	!LO:TX:a:t=1	!	!	!	!	!	!	!
1r	.	8d\L	.	1r	.	8dd\L	.	.	.	.	.
.	.	8f\	.	.	.	8ff\	.	.	.	.	.
.	.	8a\	.	.	.	8aa\	.	.	.	.	.
.	.	8g\J	.	.	.	8gg\J	.	.	.	.	.
.	.	8f\L	.	.	.	8ff\L	.	.	.	.	.
.	.	8e\	.	.	.	8ee\	.	.	.	.	.
.	.	8d\	.	.	.	8dd\	.	.	.	.	.
.	.	8c\J	.	.	.	8cc\J	.	.	.	.	.
=70	=70	=70	=70	=70	=70	=70	=70	=70	=70	=70	=70
4r	.	2B/	.	4r	.	4b\	.	.	.	00r	00r
4GG/	.	.	.	4G/	.	4r	.	.	.	.	.
4BB/	.	2r	.	4B/	.	2r	.	.	.	.	.
4D/	.	.	.	4d/	.	.	.	.	.	.	.
!	!	!LO:LB:g=original	!	!LO:LB:g=original	!	!	!	!	!	!	!
=71	=71	=71	=71	=71	=71	=71	=71	=71	=71	=71	=71
!LO:SIC:o:s=:v:niejednoznaczny zapis artykulacji w t. 71	!	!LO:TX:a:t=1	!	!	!	!	!	!	!	!	!
8G`\L	.	1r	.	8g/L	.	1r	.	.	.	.	.
8B`\	.	.	.	8b/	.	.	.	.	.	.	.
8d`\	.	.	.	8dd/	.	.	.	.	.	.	.
8c`\J	.	.	.	8cc/J	.	.	.	.	.	.	.
8B`\L	.	.	.	8b/L	.	.	.	.	.	.	.
8A`\	.	.	.	8a/	.	.	.	.	.	.	.
8G`\	.	.	.	8g/	.	.	.	.	.	.	.
8F`\J	.	.	.	8f/J	.	.	.	.	.	.	.
=72	=72	=72	=72	=72	=72	=72	=72	=72	=72	=72	=72
2E\	.	4r	.	2e/	.	4r	.	0r	0r	.	.
.	.	8g\L	.	.	.	8gg\L	.	.	.	.	.
.	.	8f\J	.	.	.	8ff\J	.	.	.	.	.
2r	.	8e\L	.	2r	.	8ee\L	.	.	.	.	.
.	.	8d\	.	.	.	8dd\	.	.	.	.	.
.	.	8c\	.	.	.	8cc\	.	.	.	.	.
!	!	!LO:SIC:o:s=:v:8B-&colon;t=zgodnie z vl I	!	!	!	!	!	!	!	!	!
.	.	8B\J	.	.	.	8b-X\J	.	.	.	.	.
!LO:LB:g=original	!	!	!	!	!	!	!	!	!	!	!
=73	=73	=73	=73	=73	=73	=73	=73	=73	=73	=73	=73
4r	.	2A/	.	4r	.	4a\	.	.	.	.	.
8c\L	.	.	.	8cc\L	.	4r	.	.	.	.	.
8B\J	.	.	.	8b\J	.	.	.	.	.	.	.
8A\L	.	2r	.	8a/L	.	2r	.	.	.	.	.
8G\	.	.	.	8g/	.	.	.	.	.	.	.
8F\	.	.	.	8f/	.	.	.	.	.	.	.
8E\J	.	.	.	8e/J	.	.	.	.	.	.	.
!	!	!	!	!	!	!LO:LB:g=original	!	!	!	!	!
=74	=74	=74	=74	=74	=74	=74	=74	=74	=74	=74	=74
2D/	.	4r	.	2d/	.	4r	.	1r	1r	1r	1r
.	.	8f\L	.	.	.	8ff\L	.	.	.	.	.
.	.	8e\J	.	.	.	8ee\J	.	.	.	.	.
2r	.	8d\L	.	2r	.	8dd\L	.	.	.	.	.
.	.	8c\	.	.	.	8cc\	.	.	.	.	.
.	.	8B\	.	.	.	8bn\	.	.	.	.	.
.	.	8A\J	.	.	.	8a\J	.	.	.	.	.
=75	=75	=75	=75	=75	=75	=75	=75	=75	=75	=75	=75
.	.	.	.	.	.	8qqa/	.	.	.	.	.
*	*	*	*	*^	*	*^	*	*	*	*	*
4r	.	4G#X/	.	2r	2ryy	.	4g#X/	4reyy	.	4e/	4ee\	4g#X/	4g#X/
4e\	.	4r	.	.	.	.	4r	4reyy	.	4r	4r	4r	4r
4E\	.	4r	.	4r	4ryy	.	4r	4reyy	.	4r	4r	4r	4r
!	!	!	!	!LO:SIC:o:s=:v:4dd	!	!	!	!	!	!	!	!	!
4r	.	4e\	.	4ee/	4cc\	.	4gg#X/	4b\	.	4e/	4ee\	4b\	4gg#X\
!	!	!	!	!	!	!	!	!	!	!	!LO:LB:g=original	!LO:LB:g=original	!
=76	=76	=76	=76	=76	=76	=76	=76	=76	=76	=76	=76	=76	=76
4r	.	4e\	.	4ee/	4cc\	.	4aa/	4a\	.	4e/	4ee\	4a/	4aa\
4e\	.	4r	.	4r	4ryy	.	4r	4reyy	.	4r	4r	4r	4r
4E\	.	4r	.	4r	4ryy	.	4r	4reyy	.	4r	4r	4r	4r
4r	.	4E/	.	4a/	4e\	.	4e/ 4cc/	4rcyy	.	4e/	4ee\	4e/	4cc\
=77	=77	=77	=77	=77	=77	=77	=77	=77	=77	=77	=77	=77	=77
4r	.	4E/	.	4B/ 4g#X/	4rAyy	.	4e/ 4b/	4rcyy	.	4e/	4ee\	4e/	4b\
4e\	.	4r	.	4r	4ryy	.	4r	4reyy	.	4r	4r	4r	4r
4E\	.	4r	.	4r	4ryy	.	4r	4reyy	.	4r	4r	4r	4r
4r	.	[4e\	.	4ee/	4dd\	.	4gg#X/	4b\	.	4e/	4ee\	4b\	4gg#X\
*	*	*	*	*	*	*	*v	*v	*	*	*	*	*
!	!	!	!	!	!LO:LB:g=original	!	!	!	!	!	!	!LO:LB:g=original
=78	=78	=78	=78	=78	=78	=78	=78	=78	=78	=78	=78	=78
4r	.	4e\]	.	4ee/	4cc\	.	4a/ 4aa/	.	4e/	4ee\	4a/	4aa\
4e\	.	4r	.	4r	4ryy	.	4r	.	4r	4r	4r	4r
4E\	.	4r	.	4r	4ryy	.	4r	.	4r	4r	4r	4r
4r	.	4E/	.	4a/	4e\	.	4e/ 4cc/	.	4e/	4ee\	4e/	4cc\
!	!	!LO:LB:g=original	!	!	!	!	!	!	!	!	!	!
=79	=79	=79	=79	=79	=79	=79	=79	=79	=79	=79	=79	=79
4r	.	4E/	.	4B/ 4g#X/	4rAyy	.	4e/ 4b/	.	4e/	4ee\	4e/	4b\
4e\	.	4r	.	4r	4ryy	.	4r	.	4r	4r	4r	4r
!LO:SIC:o:s=:v:4E czyżby plama na G?	!	!	!	!	!	!	!	!	!	!	!	!
4E\ 4G\	.	2r	.	4r	4ryy	.	4r	.	2r	2r	2r	2r
4r	.	.	.	4ee/	4dd\	.	4ee\	.	.	.	.	.
!LO:PB:g=original	!	!	!	!	!	!	!LO:LB:g=original	!	!	!	!	!
=80	=80	=80	=80	=80	=80	=80	=80	=80	=80	=80	=80	=80
4G\	f	8G/ 8e/	f	8ee/	8cc#X\	f	8bb-X\	.	4ee\	4gg\	1b-X\	1bb-X\
.	.	4G/ 4e/	.	4ee/	4cc#\	.	4bb-\	.	.	.	.	.
4G\	.	.	.	.	.	.	.	.	8ee\L	8gg\L	.	.
.	.	4G/ 4e/	.	4ee/	4cc#\	.	4bb-\	.	8ee\J	8gg\J	.	.
4G\	.	.	.	.	.	.	.	.	4ee\	4gg\	.	.
.	.	4G/ 4e/	.	4ee/	4cc#\	.	4bb-\	.	.	.	.	.
4G\	.	.	.	.	.	.	.	.	4ee\	4gg\	.	.
.	.	8G/ 8e/	.	8ee/	8cc#\	.	8bb-\	.	.	.	.	.
=81	=81	=81	=81	=81	=81	=81	=81	=81	=81	=81	=81	=81
!	!	!	!	!LO:SIC:o:s=:v:8cc#	!	!	!LO:SIC:o:s=:v:8bb-	!	!	!	!	!LO:SIC:o:s=:v:1bb-
4G\	.	8G/ 8e/	.	8ee/	8cc\	.	8bb\	.	4ee\	4gg\	1b-X\	1bb\
!	!	!	!	!LO:SIC:o:s=:v:4cc#	!	!	!LO:SIC:o:s=:v:4bb-	!	!	!	!	!
.	.	4G/ 4e/	.	4ee/	4cc\	.	4bb\	.	.	.	.	.
4G\	.	.	.	.	.	.	.	.	8ee\L	8gg\L	.	.
!	!	!	!	!LO:SIC:o:s=:v:4cc#	!	!	!LO:SIC:o:s=:v:4bb-	!	!	!	!	!
.	.	4G/ 4e/	.	4ee/	4cc\	.	4bb\	.	8ee\J	8gg\J	.	.
4G\	.	.	.	.	.	.	.	.	4ee\	4gg\	.	.
!	!	!	!	!LO:SIC:o:s=:v:4cc#	!	!	!LO:SIC:o:s=:v:4bb-	!	!	!	!	!
.	.	4G/ 4e/	.	4ee/	4cc\	.	4bb\	.	.	.	.	.
4G\	.	.	.	.	.	.	.	.	4ee\	4gg\	.	.
!	!	!	!	!LO:SIC:o:s=:v:8cc#	!	!	!LO:SIC:o:s=:v:8bb-	!	!	!	!	!
.	.	8G/ 8e/	.	8ee/	8cc\	.	8bb\	.	.	.	.	.
!	!	!	!	!	!	!	!	!	!LO:LB:g=original	!	!	!
=82	=82	=82	=82	=82	=82	=82	=82	=82	=82	=82	=82	=82
!	!	!	!	!LO:SIC:o:s=:v:4cc#	!	!	!LO:SIC:o:s=:v:4bb-	!	!	!	!LO:SIC:o:s=:v:4b-	!LO:SIC:o:s=:v:4bb-
4A\	.	4G/ 4e/	.	4ee/	4cc\	.	4bb\	.	4ee\	4gg\	4b\	4bb\
4r	.	4r	.	4r	4ryy	.	8aa\L	.	4r	4r	4r	4r
.	.	.	.	.	.	.	8gg\J	.	.	.	.	.
2r	.	2r	.	4r	4ryy	.	8ff\L	.	2r	2r	2r	2r
.	.	.	.	.	.	.	8ee\	.	.	.	.	.
.	.	.	.	4g/	4reyy	p	8dd\	.	.	.	.	.
.	.	.	.	.	.	.	8cc#X\J	.	.	.	.	.
*	*	*	*	*v	*v	*	*	*	*	*	*	*
=83	=83	=83	=83	=83	=83	=83	=83	=83	=83	=83	=83
!LO:TX:a:t=7	!	!	!	!	!	!	!	!	!	!	!
00r	.	00r	.	4f/	.	8dd\L	.	00r	00r	00r	00r
.	.	.	.	.	.	8a\	.	.	.	.	.
.	.	.	.	4d/	.	8dd\	.	.	.	.	.
.	.	.	.	.	.	8ff\J	.	.	.	.	.
.	.	.	.	4c#X/	.	8ee\L	.	.	.	.	.
.	.	.	.	.	.	8a\	.	.	.	.	.
.	.	.	.	4A/	.	8ee\	.	.	.	.	.
.	.	.	.	.	.	8gg\J	.	.	.	.	.
=84	=84	=84	=84	=84	=84	=84	=84	=84	=84	=84	=84
.	.	.	.	4d/	.	8ff\L	.	.	.	.	.
.	.	.	.	.	.	8dd\	.	.	.	.	.
.	.	.	.	4f/	.	8aa\	.	.	.	.	.
.	.	.	.	.	.	8ff\J	.	.	.	.	.
.	.	.	.	4e/	.	8cc#X\L	.	.	.	.	.
.	.	.	.	.	.	8a\	.	.	.	.	.
.	.	.	.	4g/	.	8ee\	.	.	.	.	.
.	.	.	.	.	.	8cc#\J	.	.	.	.	.
!	!	!	!	!	!	!LO:PB:g=original	!	!	!	!	!
=85	=85	=85	=85	=85	=85	=85	=85	=85	=85	=85	=85
.	.	.	.	4f/	.	8dd\L	.	.	.	.	.
.	.	.	.	.	.	8a\	.	.	.	.	.
.	.	.	.	4d/	.	8ff\	.	.	.	.	.
.	.	.	.	.	.	8dd\J	.	.	.	.	.
.	.	.	.	4c#X/	.	8ee\L	.	.	.	.	.
.	.	.	.	.	.	8a\	.	.	.	.	.
.	.	.	.	4A/	.	8gg\	.	.	.	.	.
.	.	.	.	.	.	8ee\J	.	.	.	.	.
!	!	!	!	!LO:PB:g=original	!	!	!	!	!	!	!
=86	=86	=86	=86	=86	=86	=86	=86	=86	=86	=86	=86
!	!	!	!	!LO:SIC:o:s=:v:błędnie wpisane znaki przykluczowe [b-]	!	!	!	!	!	!	!
.	.	.	.	4d/	.	8ff\L	.	.	.	.	.
.	.	.	.	.	.	8dd\	.	.	.	.	.
.	.	.	.	4e/	.	8aa\	.	.	.	.	.
.	.	.	.	.	.	8gg\J	.	.	.	.	.
.	.	.	.	4f/	.	8ff\L	.	.	.	.	.
.	.	.	.	.	.	8ee\	.	.	.	.	.
.	.	.	.	4f#X/	.	8dd\	.	.	.	.	.
.	.	.	.	.	.	8cc\J	.	.	.	.	.
=87	=87	=87	=87	=87	=87	=87	=87	=87	=87	=87	=87
0r	.	0r	.	4g/	.	8b\L	.	00r	00r	00r	00r
.	.	.	.	.	.	8g\	.	.	.	.	.
.	.	.	.	4fn/	.	8dd\	.	.	.	.	.
.	.	.	.	.	.	8b\J	.	.	.	.	.
.	.	.	.	4e/	.	8cc\L	.	.	.	.	.
.	.	.	.	.	.	8g\	.	.	.	.	.
.	.	.	.	4c/	.	8ee\	.	.	.	.	.
.	.	.	.	.	.	8cc\J	.	.	.	.	.
=88	=88	=88	=88	=88	=88	=88	=88	=88	=88	=88	=88
.	.	.	.	4B/	.	8dd\L	.	.	.	.	.
.	.	.	.	.	.	8g\	.	.	.	.	.
.	.	.	.	4G/	.	8gg\	.	.	.	.	.
.	.	.	.	.	.	8ff\J	.	.	.	.	.
.	.	.	.	4c/	.	8ee\L	.	.	.	.	.
.	.	.	.	.	.	8dd\	.	.	.	.	.
.	.	.	.	8A/L	.	8cc\	.	.	.	.	.
.	.	.	.	8B/J	.	8b\J	.	.	.	.	.
=89	=89	=89	=89	=89	=89	=89	=89	=89	=89	=89	=89
1r	.	1r	.	4c/	.	4a/	.	.	.	.	.
.	.	.	.	4c/	.	8ccc\L	.	.	.	.	.
.	.	.	.	.	.	8bb\J	.	.	.	.	.
.	.	.	.	.	.	8qqbb/	.	.	.	.	.
.	.	.	.	4c/	.	4aa\	.	.	.	.	.
.	.	.	.	4c/	.	8gg\L	.	.	.	.	.
.	.	.	.	.	.	8ff#X\J	.	.	.	.	.
=90	=90	=90	=90	=90	=90	=90	=90	=90	=90	=90	=90
4r	.	4r	.	4B/	.	4gg\	.	.	.	.	.
(16F#X\KL	p	(8.f#X\KL	.	4r	.	4r	.	.	.	.	.
8.G\J)	.	.	.	.	.	.	.	.	.	.	.
.	.	16g\J)	.	.	.	.	.	.	.	.	.
!	!	!	!	!	!	!LO:LB:g=original	!	!	!	!	!
4GG/	.	4G/	.	4r	.	4r	.	.	.	.	.
4r	.	4r	.	4b\	.	4dd\	.	.	.	.	.
=91	=91	=91	=91	=91	=91	=91	=91	=91	=91	=91	=91
1r	.	1r	.	4cc\	.	4ee-X\	.	00r	00r	00r	00r
!	!	!	!	!LO:N:vis=4.	!	!	!	!	!	!	!
.	.	.	.	4b-X\	.	4een\	.	.	.	.	.
.	.	.	.	4a/	.	4ff\	.	.	.	.	.
.	.	.	.	4a-X/	.	4ff#X\	.	.	.	.	.
=92	=92	=92	=92	=92	=92	=92	=92	=92	=92	=92	=92
4r	.	4r	.	4g/	.	4gg\	.	.	.	.	.
!LO:N:vis=16.	!	!	!	!	!	!	!	!	!	!	!
(16F#X\KL	.	(16f#X\KL	.	4r	.	4r	.	.	.	.	.
!LO:N:vis=16	!	!	!	!	!	!	!	!	!	!	!
8.G\J)	.	8.g\J)	.	.	.	.	.	.	.	.	.
4GG/	.	4G/	.	4r	.	4r	.	.	.	.	.
4r	.	4r	.	4B/	.	4d/	.	.	.	.	.
!LO:LB:g=original	!	!	!	!	!	!	!	!	!	!	!
=93	=93	=93	=93	=93	=93	=93	=93	=93	=93	=93	=93
!LO:TX:a:t=1	!	!LO:TX:a:t=1	!	!	!	!	!	!	!	!	!
1r	.	1r	.	4c/	.	4e-X/	.	.	.	.	.
.	.	.	.	4B-X/	.	4en/	.	.	.	.	.
.	.	.	.	4A/	.	4f/	.	.	.	.	.
.	.	.	.	4A-X/	.	4f#X/	.	.	.	.	.
!	!	!	!	!LO:LB:g=original	!	!	!	!	!	!	!
=94	=94	=94	=94	=94	=94	=94	=94	=94	=94	=94	=94
4r	.	4r	.	4G/	.	4g/	.	.	.	.	.
(16F#X\KL	.	(16f#X\KL	.	4r	.	4r	.	.	.	.	.
8.G\J)	.	8.g\J)	.	.	.	.	.	.	.	.	.
!	!	!LO:LB:g=original	!	!	!	!	!	!	!	!	!
4GG/	.	4G/	.	4r	.	4r	.	.	.	.	.
4r	.	4r	.	4G/	.	4G/	.	.	.	.	.
=95	=95	=95	=95	=95	=95	=95	=95	=95	=95	=95	=95
!LO:TX:a:t=1	!	!LO:TX:a:t=1	!	!	!	!	!	!	!	!	!
1r	.	1r	.	4A-X/	.	4A-X/	.	1r	1r	1r	1r
.	.	.	.	4An/	.	4An/	.	.	.	.	.
.	.	.	.	4B-X/	.	4B-X/	.	.	.	.	.
.	.	.	.	4Bn/	.	4Bn/	.	.	.	.	.
=96	=96	=96	=96	=96	=96	=96	=96	=96	=96	=96	=96
*	*	*tremolo	*	*	*	*	*	*	*	*	*
8C/L	f	8c/L	.	1c/	.	1c/	.	1c/	1cc\	4cc\	4cc\
8C/	.	8c/	.	.	.	.	.	.	.	.	.
8C/	.	8c/	.	.	.	.	.	.	.	4r	4r
8C/J	.	8c/J	.	.	.	.	.	.	.	.	.
8C/L	.	8c/L	.	.	.	.	.	.	.	2r	2r
8C/	.	8c/	.	.	.	.	.	.	.	.	.
8C/	.	8c/	.	.	.	.	.	.	.	.	.
8C/J	.	8c/J	.	.	.	.	.	.	.	.	.
!	!	!	!	!	!	!LO:LB:g=original	!	!	!	!	!
=97	=97	=97	=97	=97	=97	=97	=97	=97	=97	=97	=97
8C/L	.	8c/L	.	2e/	.	2e/	.	2e/	2ee\	2e/	2e/
8C/	.	8c/	.	.	.	.	.	.	.	.	.
8C/	.	8c/	.	.	.	.	.	.	.	.	.
8C/J	.	8c/J	.	.	.	.	.	.	.	.	.
8C/L	.	8c/L	.	2g/	.	2g/	.	2g/	2gg\	2g/	2g/
8C/	.	8c/	.	.	.	.	.	.	.	.	.
8C/	.	8c/	.	.	.	.	.	.	.	.	.
8C/J	.	8c/J	.	.	.	.	.	.	.	.	.
!	!	!	!	!	!	!	!	!	!	!LO:LB:g=original	!
=98	=98	=98	=98	=98	=98	=98	=98	=98	=98	=98	=98
8C/L	.	8c/L	.	16cc\LL	.	16cc\LL	.	4c/	4cc\	1cc\	1cc\
.	.	.	.	16dd\	.	16dd\	.	.	.	.	.
8C/	.	8c/	.	16ee\	.	16ee\	.	.	.	.	.
.	.	.	.	16dd\JJ	.	16dd\JJ	.	.	.	.	.
8C/	.	8c/	.	8cc\L	.	8cc\L	.	8.c/L	8.cc\L	.	.
8C/J	.	8c/J	.	8cc\J	.	8cc\J	.	.	.	.	.
.	.	.	.	.	.	.	.	16c/Jk	16cc\Jk	.	.
8C/L	.	8c/L	.	8cc\L	.	8cc\L	.	4c/	4cc\	.	.
8C/	.	8c/	.	8cc\	.	8cc\	.	.	.	.	.
8C/	.	8c/	.	8cc\	.	8cc\	.	4c/	4cc\	.	.
8C/J	.	8c/J	.	8cc\J	.	8cc\J	.	.	.	.	.
=99	=99	=99	=99	=99	=99	=99	=99	=99	=99	=99	=99
*	*	*	*	*^	*	*^	*	*	*	*	*
8C/L	.	8c/L	.	4a/	4f\	.	4aa/	4cc\	.	4c/	4cc\	4ff\	4aa\
8C/	.	8c/	.	.	.	.	.	.	.	.	.	.	.
8C/	.	8c/	.	4e/ 4cc/	4rcyy	.	4gg/	4cc\	.	8.c/L	8.cc\L	4ee\	4gg\
8C/J	.	8c/J	.	.	.	.	.	.	.	.	.	.	.
.	.	.	.	.	.	.	.	.	.	16c/Jk	16cc\Jk	.	.
8C/L	.	8c/L	.	2r	2ryy	.	2r	2ryy	.	4c/	4cc\	2r	2r
8C/	.	8c/	.	.	.	.	.	.	.	.	.	.	.
8C/	.	8c/	.	.	.	.	.	.	.	4c/	4cc\	.	.
8C/J	.	8c/J	.	.	.	.	.	.	.	.	.	.	.
*	*	*	*	*v	*v	*	*	*	*	*	*	*	*
*	*	*	*	*	*	*v	*v	*	*	*	*	*
!	!	!	!	!	!	!	!	!	!	!	!LO:LB:g=original
=100	=100	=100	=100	=100	=100	=100	=100	=100	=100	=100	=100
8C/L	.	8c/L	.	1c/	.	1c/	.	1c/	1cc\	4cc\	4cc\
8C/	.	8c/	.	.	.	.	.	.	.	.	.
8C/	.	8c/	.	.	.	.	.	.	.	4r	4r
8C/J	.	8c/J	.	.	.	.	.	.	.	.	.
8C/L	.	8c/L	.	.	.	.	.	.	.	2r	2r
8C/	.	8c/	.	.	.	.	.	.	.	.	.
8C/	.	8c/	.	.	.	.	.	.	.	.	.
8C/J	.	8c/J	.	.	.	.	.	.	.	.	.
=101	=101	=101	=101	=101	=101	=101	=101	=101	=101	=101	=101
8C/L	.	8c/L	.	2e/	.	2e/	.	2e/	2ee\	2e/	2e/
8C/	.	8c/	.	.	.	.	.	.	.	.	.
8C/	.	8c/	.	.	.	.	.	.	.	.	.
8C/J	.	8c/J	.	.	.	.	.	.	.	.	.
!LO:LB:g=original	!	!	!	!	!	!	!	!	!	!	!
8C/L	.	8c/L	.	2g/	.	2g/	.	2g/	2gg\	2g/	2g/
8C/	.	8c/	.	.	.	.	.	.	.	.	.
8C/	.	8c/	.	.	.	.	.	.	.	.	.
8C/J	.	8c/J	.	.	.	.	.	.	.	.	.
=102	=102	=102	=102	=102	=102	=102	=102	=102	=102	=102	=102
8C/L	.	8c/L	.	16cc\LL	.	16cc\LL	.	4c/	4cc\	1cc\	1cc\
.	.	.	.	16dd\	.	16dd\	.	.	.	.	.
8C/	.	8c/	.	16ee\	.	16ee\	.	.	.	.	.
.	.	.	.	16dd\JJ	.	16dd\JJ	.	.	.	.	.
8C/	.	8c/	.	8cc\L	.	8cc\L	.	8.c/L	8.cc\L	.	.
8C/J	.	8c/J	.	8cc\J	.	8cc\J	.	.	.	.	.
.	.	.	.	.	.	.	.	16c/Jk	16cc\Jk	.	.
8C/L	.	8c/L	.	8cc\L	.	8cc\L	.	4c/	4cc\	.	.
8C/	.	8c/	.	8cc\	.	8cc\	.	.	.	.	.
8C/	.	8c/	.	8cc\	.	8cc\	.	4c/	4cc\	.	.
8C/J	.	8c/J	.	8cc\J	.	8cc\J	.	.	.	.	.
!	!	!	!	!LO:LB:g=original	!	!LO:LB:g=original	!	!	!	!	!
=103	=103	=103	=103	=103	=103	=103	=103	=103	=103	=103	=103
*	*	*	*	*	*	*^	*	*	*	*	*
8C/L	.	8c/L	.	4G/ 4d/ 4b/	.	4ff/	4dd\	.	4g/	4dd\	4dd\	4ff\
8C/	.	8c/	.	.	.	.	.	.	.	.	.	.
8C/	.	8c/	.	4G/ 4e/ 4cc/	.	4ee/	4cc\	.	8.cc\L	8.ee\L	4cc\	4ee\
8C/J	.	8c/J	.	.	.	.	.	.	.	.	.	.
.	.	.	.	.	.	.	.	.	16cc\Jk	16ee\Jk	.	.
!	!	!	!	!	!	!	!	!	!LO:LB:g=original	!	!	!
8C/L	.	8c/L	.	2r	.	2r	2ryy	.	4cc\	4ee\	2r	2r
8C/	.	8c/	.	.	.	.	.	.	.	.	.	.
8C/	.	8c/	.	.	.	.	.	.	4cc\	4ee\	.	.
8C/J	.	8c/J	.	.	.	.	.	.	.	.	.	.
*	*	*	*	*	*	*v	*v	*	*	*	*	*
=104	=104	=104	=104	=104	=104	=104	=104	=104	=104	=104	=104
!	!	!	!	!	!	!	!	!	!	!	!LO:TX:a:t=1
8C/L	.	8c/L	.	2c/	.	2c/	.	4cc\	4ee\	1r	1r
8C/	.	8c/	.	.	.	.	.	.	.	.	.
8C/	.	8c/	.	.	.	.	.	4r	4r	.	.
8C/L	.	8c/J	.	.	.	.	.	.	.	.	.
8C/L	.	8c/L	.	4e/	.	4e/	.	2r	2r	.	.
8C/	.	8c/	.	.	.	.	.	.	.	.	.
8C/	.	8c/	.	4g/	.	4g/	.	.	.	.	.
8C/J	.	8c/J	.	.	.	.	.	.	.	.	.
!	!	!LO:LB:g=original	!	!	!	!	!	!	!	!	!
=105	=105	=105	=105	=105	=105	=105	=105	=105	=105	=105	=105
8C/L	.	8c/L	.	2c/	.	2cc\	.	2c/	2cc\	2cc\	2cc\
8C/	.	8c/	.	.	.	.	.	.	.	.	.
8C/	.	8c/	.	.	.	.	.	.	.	.	.
8C/J	.	8c/J	.	.	.	.	.	.	.	.	.
8C/L	.	8c/L	.	4e/	.	4ee\	.	4e/	4ee\	4ee\	4ee\
8C/	.	8c/	.	.	.	.	.	.	.	.	.
8C/	.	8c/	.	4g/	.	4gg\	.	4g/	4gg\	4gg\	4gg\
8C/J	.	8c/J	.	.	.	.	.	.	.	.	.
*Xtremolo	*	*Xtremolo	*	*	*	*	*	*	*	*	*
!LO:LB:g=original	!	!	!	!	!	!	!	!	!	!	!
=106	=106	=106	=106	=106	=106	=106	=106	=106	=106	=106	=106
!	!	!LO:SIC:o=:v:znak początku repetycji	!	!LO:SIC:o:s=:v:niejednoznaczny zapis łuków w t. 106	!	!	!	!	!	!LO:SIC:o=:v:znak początku repetycji	!
8E\L	.	8e\L	.	(8cc\L	.	8ccc\L	.	1c/	1cc\	1cc\	1ccc\
8E\	.	8e\	.	8b\	.	8bb\	.	.	.	.	.
8C\	.	8c\	.	8cc\	.	8ccc\	.	.	.	.	.
8C\J	.	8c\J	.	8b\J)	.	8bb\J	.	.	.	.	.
8E\L	.	8e\L	.	(8cc\L	.	8ccc\L	.	.	.	.	.
8E\	.	8e\	.	8b-X\	.	8bb-X\	.	.	.	.	.
8C\	.	8c\	.	8a\	.	8aa\	.	.	.	.	.
8C\J	.	8c\J	.	8g#X\J)	.	8gg#X\J	.	.	.	.	.
!	!	!	!	!	!	!	!	!	!LO:LB:g=original	!	!
=107	=107	=107	=107	=107	=107	=107	=107	=107	=107	=107	=107
!	!	!	!	!LO:SIC:o:s=:v:8qg#	!	!LO:SIC:o:s=:v:8qgg#	!	!	!	!	!
.	.	.	.	8qqg/	.	8qqgg/	.	.	.	.	.
8F\L	.	8f\L	.	4a/	.	4aa\	.	1c/	1cc\	1cc\	1ccc\
8F\	.	8f\	.	.	.	.	.	.	.	.	.
8C\	.	8c\	.	2a/	.	2aa\	.	.	.	.	.
8C\J	.	8c\J	.	.	.	.	.	.	.	.	.
8F\L	.	8f\L	.	.	.	.	.	.	.	.	.
8F\	.	8f\	.	.	.	.	.	.	.	.	.
8C\	.	8c\	.	8.bn/L	.	8.bbn\L	.	.	.	.	.
8C\J	.	8c\J	.	.	.	.	.	.	.	.	.
.	.	.	.	32a/LL	.	32aa\LL	.	.	.	.	.
.	.	.	.	32b/JJJ	.	32bb\JJJ	.	.	.	.	.
=108	=108	=108	=108	=108	=108	=108	=108	=108	=108	=108	=108
!	!	!	!	!LO:SIC:o:s=:v:niejednoznaczny zapis łuku	!	!	!	!	!	!LO:SIC:o:s=:v:znak końca repetycji	!
8F\L	.	8f\L	.	(8cc\L	.	8ccc\L	.	1c/	1cc\	1cc\	1ccc\
8F\	.	8f\	.	8b\	.	8bb\	.	.	.	.	.
8C\	.	8c\	.	8cc\	.	8ccc\	.	.	.	.	.
8C\J	.	8c\J	.	8b\J)	.	8bb\J	.	.	.	.	.
!LO:LB:g=original	!	!	!	!	!	!	!	!	!	!	!
8F\L	.	8f\L	.	8cc/L	.	8ccc\L	.	.	.	.	.
8F\	.	8f\	.	8a/	.	8aa\	.	.	.	.	.
8C\	.	8c\	.	8g/	.	8gg\	.	.	.	.	.
8C\J	.	8c\J	.	8f#X/J	.	8ff#X\J	.	.	.	.	.
!	!	!	!	!	!	!LO:LB:g=original	!	!	!	!	!
=109	=109	=109	=109	=109	=109	=109	=109	=109	=109	=109	=109
!	!	!	!	!LO:SIC:o:s=:v:8qf#	!	!LO:SIC:o:s=:v:8qff#	!	!	!	!LO:SIC:o:s=:v:powtórzenie tt. 106-108 oznaczone znakami repetycji	!
.	.	.	.	8qqf/	.	8qqff/	.	.	.	.	.
8E\L	.	8e\L	.	4g/	.	4gg\	.	1c/	1cc\	1ccyy\	1ccc\
8E\	.	8e\	.	.	.	.	.	.	.	.	.
8C\	.	8c\	.	2g/	.	2gg\	.	.	.	.	.
8C\J	.	8c\J	.	.	.	.	.	.	.	.	.
8E\L	.	8e\L	.	.	.	.	.	.	.	.	.
8E\	.	8e\	.	.	.	.	.	.	.	.	.
!	!	!	!	!LO:N:vis=8	!	!	!	!	!	!	!
8C\	.	8c\	.	8.b\L	.	8.bbnt\L	.	.	.	.	.
8C\J	.	8c\J	.	.	.	.	.	.	.	.	.
!	!	!	!	!LO:SIC:o:s=:v:32a&colon;t=błędny dwudźwięk	!	!	!	!	!	!	!
.	.	.	.	32a\LL 32b\	.	32aa\LL	.	.	.	.	.
.	.	.	.	32b\JJJ	.	32bb\JJJ	.	.	.	.	.
=110	=110	=110	=110	=110	=110	=110	=110	=110	=110	=110	=110
!	!	!	!	!LO:SIC:o:s=:v:niejednoznaczny zapis łuków w t. 110	!	!	!	!	!	!	!
8E\L	.	8e\L	.	(8cc\L	.	8ccc\L	.	1c/	1cc\	1ccyy\	1ccc\
8E\	.	8e\	.	8b\	.	8bb\	.	.	.	.	.
8C\	.	8c\	.	8cc\	.	8ccc\	.	.	.	.	.
8C\J	.	8c\J	.	8b\J)	.	8bb\J	.	.	.	.	.
!	!	!	!	!LO:LB:g=original	!	!	!	!	!	!	!
8E\L	.	8e\L	.	(8cc\L	.	8ccc\L	.	.	.	.	.
8E\	.	8e\	.	8b-X\	.	8bb-X\	.	.	.	.	.
8C\	.	8c\	.	8a\	.	8aa\	.	.	.	.	.
8C\J	.	8c\J	.	8g#X\J)	.	8gg#X\J	.	.	.	.	.
=111	=111	=111	=111	=111	=111	=111	=111	=111	=111	=111	=111
8F\L	.	8f\L	.	8a\L	.	8aa\L	.	1c/	1cc\	1ccyy\	1ccc\
8F\	.	8f\	.	8bn\	.	8bbn\	.	.	.	.	.
8A\	.	8a\	.	8cc\	.	8ccc\	.	.	.	.	.
8A\J	.	8a\J	.	8b\J	.	8bb\J	.	.	.	.	.
8F\L	.	8f\L	.	8cc\L	.	8ccc\L	.	.	.	.	.
8F\	.	8f\	.	8a\	.	8aa\	.	.	.	.	.
8A\	.	8a\	.	8g\	.	8gg\	.	.	.	.	.
8A\J	.	8a\J	.	8f\J	.	8ffn\J	.	.	.	.	.
!	!	!LO:LB:g=original	!	!	!	!	!	!	!	!	!
=112	=112	=112	=112	=112	=112	=112	=112	=112	=112	=112	=112
*tremolo	*	*tremolo	*	*	*	*	*	*	*	*	*
!	!	!	!	!	!	!	!	!LO:N:vis=2	!	!	!
8G\L	.	8g\L	.	8e/L	.	8ee\L	.	1e/	1cc\	1ee\	1gg\
8G\	.	8g\	.	8f/	.	8ff\	.	.	.	.	.
8G\	.	8g\	.	8g/	.	8gg\	.	.	.	.	.
8G\J	.	8g\J	.	8f/J	.	8ff\J	.	.	.	.	.
8G\L	.	8g\L	.	8g/L	.	8gg\L	.	.	.	.	.
8G\	.	8g\	.	8e/	.	8ee\	.	.	.	.	.
8G\	.	8g\	.	8d/	.	8dd\	.	.	.	.	.
8G\J	.	8g\J	.	8c/J	.	8cc\J	.	.	.	.	.
!	!	!	!	!	!	!	!	!	!	!	!LO:LB:g=original
=113	=113	=113	=113	=113	=113	=113	=113	=113	=113	=113	=113
!	!	!	!	!	!	!	!	!LO:N:vis=2	!	!	!
8GG/L	.	8g\L	.	8d/L	.	8dd\L	.	1g/	1dd\	1b\	1ff\
8GG/	.	8g\	.	8e/	.	8ee\	.	.	.	.	.
8GG/	.	8g\	.	8f/	.	8ff\	.	.	.	.	.
8GG/J	.	8g\J	.	8e/J	.	8ee\J	.	.	.	.	.
!	!	!	!	!	!	!LO:LB:g=original	!	!	!	!	!
!	!	!LO:SIC:o:s=:v:znak końca repetycji	!	!	!	!	!	!	!	!	!
8GG/L	.	8g\L	.	8f/L	.	8ff\L	.	.	.	.	.
8GG/	.	8g\	.	8d/	.	8dd\	.	.	.	.	.
8GG/	.	8g\	.	8c/	.	8cc\	.	.	.	.	.
8GG/J	.	8g\J	.	8B/J	.	8b\J	.	.	.	.	.
!	!	!	!	!	!	!	!	!	!	!LO:LB:g=original	!
*	*	*Xtremolo	*	*	*	*	*	*	*	*	*
=114	=114	=114	=114	=114	=114	=114	=114	=114	=114	=114	=114
!	!	!LO:SIC:o:s=:v:powtórzenie tt. 106-113 oznaczone znakami repetycji	!	!	!	!	!	!	!	!	!
8C/L	p	8e\Lyy	.	8cc\L	p	8ccc\L	p	2cc\	2ee\	2cc\	2ee\
8C/	.	8e\yy	.	8b\	.	8bb\	.	.	.	.	.
8C/	.	8c\yy	.	8cc\	.	8ccc\	.	.	.	.	.
8C/J	.	8c\Jyy	.	8b\J	.	8bb\J	.	.	.	.	.
*Xtremolo	*	*	*	*	*	*	*	*	*	*	*
8E\L	.	8e\Lyy	.	8cc/L	.	8ccc\L	.	2c/	2cc\	2cc\	2ccc\
8E\	.	8e\yy	.	8b-X/	.	8bb-X\	.	.	.	.	.
8C\	.	8c\yy	.	8a/	.	8aa\	.	.	.	.	.
8C\J	.	8c\Jyy	.	8g#X/J	.	8gg#X\J	.	.	.	.	.
!LO:LB:g=original	!	!	!	!	!	!	!	!	!	!	!
=115	=115	=115	=115	=115	=115	=115	=115	=115	=115	=115	=115
.	.	.	.	.	.	8qqgg#X/	.	.	.	.	.
8F\L	.	8f\Lyy	.	4a/	.	4aa\	.	1c/	1cc\	1cc\	1ccc\
8F\	.	8f\yy	.	.	.	.	.	.	.	.	.
8C\	.	8c\yy	.	2a/	.	2aa\	.	.	.	.	.
8C\J	.	8c\Jyy	.	.	.	.	.	.	.	.	.
8F\L	.	8f\Lyy	.	.	.	.	.	.	.	.	.
8F\	.	8f\yy	.	.	.	.	.	.	.	.	.
8C\	.	8c\yy	.	8.b/L	.	8.bbn\L	.	.	.	.	.
8C\J	.	8c\Jyy	.	.	.	.	.	.	.	.	.
.	.	.	.	32a/LL	.	32aa\LL	.	.	.	.	.
.	.	.	.	32b/JJJ	.	32bb\JJJ	.	.	.	.	.
!	!	!	!	!LO:LB:g=original	!	!	!	!	!	!	!
=116	=116	=116	=116	=116	=116	=116	=116	=116	=116	=116	=116
!	!	!	!	!LO:SIC:o:s=:v:niejednoznaczny zapis łuku	!	!	!	!	!	!	!
8F\L	.	8f\Lyy	.	(8cc\L	.	8ccc\L	.	1c/	1cc\	1cc\	1ccc\
8F\	.	8f\yy	.	8b\	.	8bb\	.	.	.	.	.
8C\	.	8c\yy	.	8cc\	.	8ccc\	.	.	.	.	.
8C\J	.	8c\Jyy	.	8b\J)	.	8bb\J	.	.	.	.	.
8F\L	.	8f\Lyy	.	8cc/L	.	8ccc\L	.	.	.	.	.
8F\	.	8f\yy	.	8a/	.	8aa\	.	.	.	.	.
8C\	.	8c\yy	.	8g/	.	8gg\	.	.	.	.	.
8C\J	.	8c\Jyy	.	8f#X/J	.	8ff#X\J	.	.	.	.	.
=117	=117	=117	=117	=117	=117	=117	=117	=117	=117	=117	=117
!	!	!	!	!LO:SIC:o:s=:v:8qf#	!	!LO:SIC:o:s=:v:8qff#	!	!	!	!	!
.	.	.	.	8qqf/	.	8qqff/	.	.	.	.	.
8E\L	.	8e\Lyy	.	4g/	.	4gg\	.	1c/	1cc\	1cc\	1ccc\
8E\	.	8e\yy	.	.	.	.	.	.	.	.	.
8C\	.	8c\yy	.	2g/	.	2gg\	.	.	.	.	.
8C\J	.	8c\Jyy	.	.	.	.	.	.	.	.	.
8E\L	.	8e\Lyy	.	.	.	.	.	.	.	.	.
8E\	.	8e\yy	.	.	.	.	.	.	.	.	.
8C\	.	8c\yy	.	8.b\L	.	8.bbnt\L	.	.	.	.	.
8C\J	.	8c\Jyy	.	.	.	.	.	.	.	.	.
.	.	.	.	32a\LL	.	32aa\LL	.	.	.	.	.
.	.	.	.	32b\JJJ	.	32bb\JJJ	.	.	.	.	.
!	!	!	!	!	!	!LO:LB:g=original	!	!	!	!	!
=118	=118	=118	=118	=118	=118	=118	=118	=118	=118	=118	=118
!	!	!	!	!LO:SIC:o:s=:v:niejednoznaczny zapis łuku	!	!	!	!	!	!	!
8E\L	.	8e\Lyy	.	(8cc/L	.	8ccc\L	.	1c/	1cc\	1cc\	1ccc\
8E\	.	8e\yy	.	8b/	.	8bb\	.	.	.	.	.
8C\	.	8c\yy	.	8cc/	.	8ccc\	.	.	.	.	.
8C\J	.	8c\Jyy	.	8b/J)	.	8bb\J	.	.	.	.	.
8E\L	.	8e\Lyy	.	8cc/L	.	8ccc\L	.	.	.	.	.
8E\	.	8e\yy	.	8b-X/	.	8bb-X\	.	.	.	.	.
8C\	.	8c\yy	.	8a/	.	8aa\	.	.	.	.	.
!	!	!	!	!LO:SIC:o:s=:v:8g#	!	!	!	!	!	!	!
8C\J	.	8c\Jyy	.	8g/J	.	8gg#X\J	.	.	.	.	.
!	!	!	!	!	!	!	!	!LO:LB:g=original	!	!	!
=119	=119	=119	=119	=119	=119	=119	=119	=119	=119	=119	=119
8F\L	.	8f\Lyy	.	8a/L	.	8aa\L	.	1c/	1cc\	1cc\	1ccc\
8F\	.	8f\yy	.	8b/	.	8bbn\	.	.	.	.	.
8A\	.	8a\yy	.	8cc/	.	8ccc\	.	.	.	.	.
8A\J	.	8a\Jyy	.	8b/J	.	8bb\J	.	.	.	.	.
8F\L	.	8f\Lyy	.	8cc/L	.	8ccc\L	.	.	.	.	.
8F\	.	8f\yy	.	8a/	.	8aa\	.	.	.	.	.
8A\	.	8a\yy	.	8g/	.	8gg\	.	.	.	.	.
8A\J	.	8a\Jyy	.	8f/J	.	8ffn\J	.	.	.	.	.
=120	=120	=120	=120	=120	=120	=120	=120	=120	=120	=120	=120
*tremolo	*	*tremolo	*	*	*	*	*	*	*	*	*
8G\L	.	8gL\yy	.	8e/L	.	8ee\L	.	2e/	1cc\	1ee\	1gg\
8G\	.	8g\yy	.	8f/	.	8ff\	.	.	.	.	.
8G\	.	8g\yy	.	8g/	.	8gg\	.	.	.	.	.
8G\J	.	8gJ\yy	.	8f/J	.	8ff\J	.	.	.	.	.
8G\L	.	8gL\yy	.	8g/L	.	8gg\L	.	2g/	.	.	.
8G\	.	8g\yy	.	8e/	.	8ee\	.	.	.	.	.
8G\	.	8g\yy	.	8d/	.	8dd\	.	.	.	.	.
8G\J	.	8gJ\yy	.	8c/J	.	8cc\J	.	.	.	.	.
!LO:LB:g=original	!	!	!	!	!	!	!	!	!	!	!
=121	=121	=121	=121	=121	=121	=121	=121	=121	=121	=121	=121
!	!	!	!	!	!	!	!	!LO:SIC:o:s=:v:brak t. 121	!	!	!
8GG/L	.	8gL\yy	.	8d/L	.	8dd\L	.	1r	1dd\	1b\	1ff\
8GG/	.	8g\yy	.	8e/	.	8ee\	.	.	.	.	.
8GG/	.	8g\yy	.	8f/	.	8ff\	.	.	.	.	.
8GG/J	.	8gJ\yy	.	8e/J	.	8ee\J	.	.	.	.	.
!	!	!	!	!LO:LB:g=original	!	!	!	!	!	!	!
8GG/L	.	8gL\yy	.	8f/L	.	8ff\L	.	.	.	.	.
8GG/	.	8g\yy	.	8d/	.	8dd\	.	.	.	.	.
8GG/	.	8g\yy	.	8c/	.	8cc\	.	.	.	.	.
8GG/J	.	8gJ\yy	.	8B/J	.	8b\J	.	.	.	.	.
*	*	*Xtremolo	*	*	*	*	*	*	*	*	*
=122	=122	=122	=122	=122	=122	=122	=122	=122	=122	=122	=122
*	*	*	*	*^	*	*^	*	*	*	*	*
!	!	!LO:SIC:o:s=:v:ff = ffor	!	!	!	!	!	!	!	!	!	!	!
4C/	f	4c/	ff	4c/ 4e/ 4cc/	4rAyy	.	4cc\	4rcyy	.	4cc\	4ee\	4cc\	4ee\
4C/	.	4g\	.	4ee/	4cc\	.	4gg/	4cc\	.	8.c/L	8cc\L	4g/	4ee\
.	.	.	.	.	.	.	.	.	.	.	8cc\J	.	.
.	.	.	.	.	.	.	.	.	.	16c/Jk	.	.	.
!	!	!	!	!	!	!	!	!	!	!	!LO:LB:g=original	!	!
4C/	.	4a\	.	4ff/	4a\	.	4aa/	4cc\	.	4c/	4cc\	4a/	4ff\
4C/	.	4g\	.	4ee/	4cc\	.	4gg/	4cc\	.	4c/	4cc\	4g/	4ee\
=123	=123	=123	=123	=123	=123	=123	=123	=123	=123	=123	=123	=123	=123
4C/	.	4a\	.	4ff/	4a\	.	4aa/	4cc\	.	4c/	4ee\	4a/	4ff\
4C/	.	4g\	.	4ee/	4cc\	.	4gg/	4cc\	.	4c/	4cc\	4g/	4ee\
4C/	.	4a\	.	4ff/	4a\	.	4aa/	4cc\	.	4e/	4cc\	4a/	4ff\
4C/	.	4g\	.	4ff/	4dd\	.	4bb/	4dd\	.	4g/	4dd\	4b/	4dd\
!	!	!	!	!	!	!	!LO:LB:g=original	!	!	!	!	!	!
=124	=124	=124	=124	=124	=124	=124	=124	=124	=124	=124	=124	=124	=124
4C/	.	4g\	.	4ee/	4cc\	.	4ccc/	4ee\	.	4cc\	4ee\	4cc\	4ee\
4C/	.	4g\	.	4ee/	4cc\	.	4gg/	4cc\	.	8c/L	8cc\L	4g/	4ee\
.	.	.	.	.	.	.	.	.	.	8c/J	8cc\J	.	.
4C/	.	4a\	.	4ff/	4a\	.	4aa/	4cc\	.	4c/	4cc\	4a/	4ff\
4C/	.	4g\	.	4ee/	4cc\	.	4gg/	4cc\	.	4c/	4cc\	4g/	4ee\
!	!	!	!	!	!	!	!	!	!	!	!	!	!LO:LB:g=original
=125	=125	=125	=125	=125	=125	=125	=125	=125	=125	=125	=125	=125	=125
4C/	.	4a\	.	4ff/	4a\	.	4aa/	4cc\	.	4c/	4cc\	4a/	4ff\
4C/	.	4g\	.	4ee/	4cc\	.	4gg/	4cc\	.	4c/	4cc\	4g/	4ee\
4C/	.	4a\	.	4ff/	4a\	.	4aa/	4cc\	.	4e/	4cc\	4a/	4ff\
4C/	.	4g\	.	4ff/	4dd\	.	4bb/	4dd\	.	4g/	4dd\	4b/	4dd\
*	*	*	*	*	*	*	*v	*v	*	*	*	*	*
=126	=126	=126	=126	=126	=126	=126	=126	=126	=126	=126	=126	=126
4C/	.	4g\	.	4ee/	4cc\	.	4g/ 4ee/ 4ccc/	.	4cc\	4ee\	4cc/	4ee\
4r	.	4r	.	4r	4ryy	.	4r	.	4r	4r	4r	4r
4C/	.	4g\	.	4e/ 4cc/ 4ee/	4rcyy	.	4g/ 4ee/ 4ccc/	.	4e/	4cc\	4cc/	4ee\
4r	.	4r	.	4r	4ryy	.	4r	.	4r	4r	4r	4r
*	*	*	*	*v	*v	*	*	*	*	*	*	*
=127	=127	=127	=127	=127	=127	=127	=127	=127	=127	=127	=127
2C/	.	2g\	.	2e/ 2cc/ 2ee/	.	2G/ 2g/ 2ee/ 2ccc/	.	2e/	2cc\	2cc/	2ee\
2r	.	2r	.	2r	.	2r	.	2r	2r	2r	2r
=:|!	=:|!	=:|!	=:|!	=:|!	=:|!	=:|!	=:|!	=:|!	=:|!	=:|!	=:|!
*-	*-	*-	*-	*-	*-	*-	*-	*-	*-	*-	*-
!!!system-decoration: [(s1)]s2[(s3,s4)][(s5,s6,s7,s8)]
!!!RDF**kern: > = above
!!!RDF**kern: < = below
!!!RDF**dynam: p = pia
!!!EED: Leszek Kubiak
!!!EST: 2020-07-21
!!!ENC: Andrzej Kubiczek
!!!END: 2020-05-12
